presets/luts/creative/cinematic-gold-02.cube
LUT_3D_SIZE 16
-0.005692 -0.006816 0.016585
0.011036 -0.007026 0.016482
0.035531 -0.007374 0.017327
0.049985 -0.007745 0.013818
0.112550 -0.008499 0.009262
0.192737 -0.010095 0.008583
0.274575 -0.010033 0.008399
0.358862 -0.005452 0.005085
0.438477 0.011213 0.004111
0.511728 0.014017 0.004423
0.584554 0.012692 0.004869
0.654119 0.014069 0.005548
0.715764 0.022110 0.007009
0.766588 0.029738 0.008880
0.802260 0.034791 0.010130
0.823434 0.036855 0.010655
-0.006187 0.011356 0.016761
0.010439 0.010349 0.016714
0.034789 0.014740 0.017287
0.050370 0.013941 0.012253
0.115676 0.013476 0.006432
0.196499 0.020629 0.003519
0.277868 0.030402 0.002851
0.361366 0.038334 0.003119
0.440992 0.043290 0.004015
0.514884 0.045222 0.004423
0.588091 0.044507 0.004805
0.657860 0.046538 0.005642
0.719376 0.052783 0.007054
0.769707 0.059336 0.008965
0.804379 0.063525 0.010306
0.824344 0.064474 0.010719
-0.006597 0.040464 0.018161
0.014109 0.039946 0.017809
0.033823 0.040920 0.018335
0.057653 0.047923 0.013357
0.128497 0.050255 0.006388
0.213342 0.058359 0.003828
0.296900 0.066109 0.003240
0.378604 0.071515 0.003737
0.456047 0.076040 0.004488
0.529855 0.076094 0.004942
0.602874 0.075163 0.005448
0.671170 0.078751 0.006388
0.730225 0.085153 0.008033
0.778673 0.091232 0.010013
0.811547 0.094236 0.011151
0.830371 0.093681 0.011422
-0.007026 0.079253 0.021254
0.015942 0.078795 0.020825
0.037082 0.082155 0.021538
0.053646 0.091819 0.017308
0.145699 0.102559 0.009519
0.246653 0.107906 0.005339
0.337804 0.112103 0.004805
0.421812 0.115992 0.005281
0.497701 0.117265 0.005727
0.568356 0.118575 0.006094
0.635745 0.120848 0.006778
0.699346 0.125556 0.008064
0.756221 0.132028 0.009988
0.800929 0.137543 0.012032
0.830151 0.140018 0.013611
0.847091 0.137630 0.014015
-0.007325 0.126599 0.029690
0.016947 0.126326 0.029461
0.040563 0.130800 0.030241
0.046941 0.145975 0.025559
0.144822 0.157699 0.016958
0.276259 0.171974 0.012506
0.376535 0.176244 0.009519
0.460077 0.178067 0.008033
0.537113 0.176366 0.007906
0.609813 0.176430 0.008161
0.677050 0.178643 0.009125
0.737446 0.181882 0.010430
0.788732 0.185697 0.012506
0.827247 0.189633 0.015172
0.852270 0.190736 0.017073
0.866976 0.186214 0.017225
-0.007609 0.177137 0.039419
0.017709 0.177066 0.039264
0.042982 0.181802 0.039551
0.050530 0.202195 0.036485
0.121140 0.223992 0.026273
0.280500 0.245203 0.022368
0.415143 0.260014 0.020581
0.502260 0.261367 0.015540
0.578755 0.259721 0.014958
0.648883 0.255164 0.014727
0.714344 0.251474 0.015227
0.771345 0.250520 0.017017
0.816984 0.250307 0.018791
0.850867 0.253519 0.021807
0.873866 0.254203 0.024241
0.885645 0.246433 0.024829
-0.007834 0.232338 0.050265
0.018404 0.232552 0.050382
0.044326 0.237789 0.050904
0.063376 0.264218 0.047642
0.064610 0.291430 0.034021
0.266816 0.332775 0.026690
0.439817 0.355207 0.035001
0.554997 0.362782 0.034731
0.632186 0.358600 0.033470
0.699445 0.351551 0.032685
0.758576 0.343635 0.030753
0.810651 0.337571 0.029414
0.853969 0.335030 0.029487
0.887358 0.340262 0.033660
0.909995 0.343467 0.039455
0.919184 0.331619 0.038355
-0.008007 0.294732 0.067683
0.019043 0.295515 0.068400
0.045361 0.300985 0.068131
0.070226 0.331556 0.062024
0.051738 0.362024 0.048810
0.192645 0.406071 0.032137
0.446605 0.455076 0.050352
0.600008 0.470312 0.067391
0.690082 0.467919 0.064552
0.761876 0.461944 0.058365
0.821742 0.455975 0.051786
0.870032 0.449623 0.046031
0.907545 0.447337 0.045470
0.934356 0.452950 0.055991
0.952279 0.458159 0.072280
0.960868 0.444585 0.069050
-0.008176 0.365394 0.096188
0.019549 0.366533 0.097032
0.046340 0.372717 0.098237
0.071964 0.403094 0.096379
0.087505 0.433433 0.075918
0.094287 0.459015 0.050862
0.363486 0.521080 0.051929
0.612751 0.574662 0.086638
0.738654 0.583747 0.096406
0.820810 0.585905 0.086535
0.875995 0.579239 0.079859
0.913425 0.571503 0.080566
0.939648 0.570378 0.102475
0.956871 0.575422 0.141397
0.968239 0.576695 0.172374
0.975129 0.561426 0.175244
-0.008258 0.440259 0.125926
0.019846 0.441628 0.126934
0.047030 0.446189 0.127186
0.072734 0.470451 0.123377
0.095742 0.507594 0.101572
0.082682 0.520694 0.071203
0.248982 0.568645 0.049763
0.536088 0.643278 0.075361
0.753958 0.697095 0.113977
0.851328 0.695643 0.133767
0.901682 0.689090 0.150963
0.930152 0.682994 0.169665
0.950419 0.684005 0.206530
0.965033 0.688079 0.252230
0.975611 0.687644 0.283414
0.982656 0.671511 0.284713
-0.008340 0.511336 0.149031
0.020024 0.512803 0.149824
0.047419 0.516259 0.149602
0.073263 0.536317 0.143558
0.098352 0.581118 0.121507
0.111116 0.601412 0.096970
0.169330 0.622624 0.070480
0.440870 0.700984 0.063612
0.724068 0.779731 0.127276
0.861057 0.796070 0.202440
0.912237 0.790387 0.236723
0.939682 0.788595 0.268116
0.958168 0.786630 0.311043
0.971735 0.786386 0.356666
0.981194 0.782515 0.384019
0.987938 0.766154 0.386509
-0.008380 0.576796 0.161418
0.020079 0.578439 0.161975
0.047585 0.582308 0.159849
0.073443 0.605087 0.153997
0.097946 0.658144 0.145298
0.115723 0.689347 0.135409
0.166591 0.699326 0.122150
0.390665 0.763565 0.089863
0.687823 0.838841 0.148766
0.856402 0.876913 0.259703
0.919187 0.881293 0.317402
0.946902 0.877784 0.362511
0.963574 0.869992 0.408130
0.974732 0.863093 0.447040
0.983192 0.855329 0.462780
0.989718 0.836968 0.458088
-0.008380 0.647376 0.176400
0.020061 0.649074 0.176555
0.047549 0.654500 0.174652
0.072790 0.683014 0.174050
0.095921 0.736048 0.183068
0.127639 0.768376 0.194171
0.209993 0.780704 0.201506
0.395799 0.823929 0.183963
0.668917 0.885235 0.227407
0.830031 0.920683 0.343706
0.907389 0.934375 0.406987
0.946672 0.937904 0.449975
0.964880 0.930512 0.487456
0.975168 0.921852 0.519156
0.983267 0.912762 0.530551
0.989780 0.896663 0.524651
-0.008380 0.712090 0.186286
0.019942 0.713495 0.186633
0.047219 0.721362 0.188508
0.070902 0.754122 0.201803
0.101729 0.796472 0.226295
0.169905 0.816944 0.252163
0.274988 0.833642 0.276230
0.444994 0.870209 0.290898
0.678942 0.917916 0.345705
0.814419 0.947226 0.435458
0.887423 0.957226 0.488953
0.930292 0.960773 0.523259
0.961621 0.963163 0.544094
0.974606 0.955514 0.556850
0.982875 0.946218 0.564954
0.989496 0.932619 0.562794
-0.008299 0.759289 0.196495
0.019749 0.760393 0.197087
0.046517 0.769756 0.202472
0.069230 0.802785 0.224836
0.121645 0.832793 0.256537
0.204072 0.844699 0.289969
0.329515 0.869242 0.329359
0.494966 0.904406 0.364449
0.694890 0.941763 0.415983
0.810705 0.963638 0.479149
0.880157 0.971155 0.519658
0.920254 0.973965 0.550596
0.949587 0.975711 0.568070
0.970909 0.976242 0.572976
0.983289 0.969467 0.574041
0.989131 0.953368 0.571314
-0.007834 0.812730 0.209480
0.020169 0.813586 0.209598
0.046161 0.822991 0.215638
0.069332 0.852867 0.239202
0.124766 0.876745 0.272040
0.211149 0.886351 0.309402
0.349597 0.913776 0.363749
0.519478 0.945507 0.415492
0.695574 0.974778 0.459014
0.805146 0.991350 0.510605
0.875712 0.996778 0.543934
0.915375 0.998372 0.573635
0.941792 0.999384 0.593490
0.959641 0.999558 0.599448
0.976057 0.999772 0.599675
0.994729 0.999625 0.599588
-0.006599 -0.264025 -0.063696
0.007525 -0.265147 -0.064329
0.033626 -0.275792 -0.066938
0.046755 -0.289460 -0.075084
0.111706 -0.302843 -0.067541
0.189899 -0.315198 0.053649
0.259402 -0.331656 0.100015
0.320467 -0.353655 0.126224
0.371421 -0.374747 0.141483
0.427973 -0.389147 0.155140
0.501035 -0.396503 0.170530
0.581408 -0.399683 0.180502
0.656426 -0.401084 0.183265
0.718288 -0.401560 0.181099
0.760628 -0.401622 0.176379
0.784777 -0.401449 0.171566
-0.005869 0.056590 0.023094
0.010677 0.058194 0.023671
0.036391 0.061263 0.021684
0.054109 0.059029 0.015362
0.123899 0.057264 0.019846
0.201507 0.061930 0.022322
0.280363 0.072432 0.025243
0.361937 0.081418 0.029057
0.438482 0.087722 0.033033
0.510353 0.091432 0.036227
0.582761 0.092664 0.038909
0.652454 0.093357 0.041005
0.714652 0.094437 0.042783
0.765446 0.094925 0.044069
0.800783 0.094733 0.044695
0.823762 0.097807 0.049684
-0.004984 0.041370 0.039256
-0.007516 0.041816 0.031711
0.033087 0.041753 0.030795
0.059526 0.045554 0.023312
0.134079 0.044945 0.014301
0.217040 0.052349 0.010806
0.298367 0.059728 0.009964
0.379121 0.065353 0.010544
0.455515 0.069647 0.011512
0.528950 0.069676 0.012323
0.601925 0.068506 0.013198
0.670159 0.071799 0.014243
0.729075 0.078090 0.015806
0.777416 0.084157 0.017501
0.810564 0.087652 0.018296
0.832087 0.091492 0.031239
-0.003914 0.080262 0.046726
-0.009907 0.080331 0.030995
0.033130 0.082615 0.029280
0.052335 0.092010 0.024759
0.148769 0.100700 0.015639
0.249179 0.104812 0.011027
0.339145 0.108512 0.010036
0.422068 0.112091 0.010107
0.497135 0.112875 0.010500
0.567344 0.113550 0.010918
0.634116 0.115428 0.011754
0.697544 0.120167 0.013294
0.754516 0.126787 0.015477
0.799381 0.132403 0.017598
0.828910 0.134916 0.019022
0.848514 0.134920 0.033057
-0.003256 0.127228 0.057031
-0.010574 0.127256 0.037948
0.035165 0.130607 0.035971
0.043430 0.145737 0.031796
0.144782 0.158045 0.022600
0.278307 0.170990 0.017619
0.378061 0.174192 0.014539
0.461173 0.175455 0.013147
0.537347 0.172565 0.012834
0.609974 0.172537 0.013182
0.676994 0.174883 0.014346
0.737089 0.178190 0.015870
0.788363 0.182128 0.018227
0.826745 0.185939 0.020985
0.851533 0.186904 0.022710
0.867741 0.184357 0.036760
-0.002932 0.178112 0.067646
-0.011051 0.177659 0.046959
0.036920 0.181054 0.044614
0.048769 0.201205 0.042193
0.116645 0.223889 0.031800
0.280837 0.245691 0.027472
0.416519 0.259490 0.025559
0.502959 0.259865 0.020794
0.579100 0.257244 0.020162
0.649087 0.252276 0.020051
0.714583 0.248626 0.020784
0.771289 0.247504 0.022690
0.816647 0.247449 0.024800
0.850433 0.250490 0.027934
0.873093 0.250732 0.030215
0.886423 0.245480 0.045221
-0.002750 0.233832 0.080207
-0.011476 0.232872 0.058003
0.037684 0.236610 0.056036
0.061416 0.262373 0.053357
0.059185 0.290698 0.039926
0.263249 0.332675 0.031970
0.440649 0.355836 0.040370
0.555819 0.362296 0.040111
0.632636 0.357436 0.038927
0.699673 0.349836 0.038244
0.758615 0.341503 0.036525
0.810221 0.335098 0.035515
0.853646 0.332696 0.036144
0.886675 0.337837 0.040494
0.909251 0.340781 0.045979
0.919705 0.331153 0.060169
-0.002750 0.297116 0.098807
-0.011780 0.295603 0.076060
0.038875 0.299589 0.073736
0.067585 0.329113 0.068412
0.052340 0.361053 0.055420
0.187105 0.405373 0.038318
0.444262 0.455316 0.055914
0.600801 0.470714 0.073313
0.690711 0.467575 0.070477
0.762309 0.461124 0.064441
0.821865 0.454650 0.058066
0.870085 0.447994 0.052853
0.907629 0.445891 0.053233
0.934504 0.451431 0.063804
0.952275 0.456674 0.079463
0.961051 0.445257 0.094537
-0.002932 0.367862 0.127982
-0.012026 0.366369 0.105255
0.040030 0.370847 0.104084
0.069515 0.400372 0.103846
0.085659 0.432741 0.083740
0.079577 0.457450 0.057273
0.358028 0.520520 0.057563
0.611888 0.574939 0.092976
0.739550 0.584564 0.103188
0.821366 0.586048 0.093451
0.876500 0.578972 0.087201
0.913715 0.570813 0.088466
0.939744 0.569929 0.111092
0.957051 0.574995 0.149958
0.968237 0.576297 0.181148
0.975269 0.563135 0.199039
-0.003100 0.443340 0.158870
-0.012169 0.441597 0.135869
0.040865 0.444756 0.134105
0.070129 0.467368 0.132191
0.095333 0.507508 0.110940
0.076891 0.519984 0.079402
0.241431 0.567628 0.056577
0.532514 0.642794 0.081990
0.753720 0.697849 0.121515
0.851934 0.696314 0.142021
0.901861 0.689402 0.159495
0.930278 0.683025 0.178345
0.950496 0.684137 0.215959
0.965065 0.688266 0.261612
0.975563 0.687967 0.293113
0.982710 0.673931 0.307357
-0.003402 0.514559 0.182091
-0.012169 0.512607 0.159603
0.041406 0.515302 0.157664
0.070631 0.532580 0.153797
0.097164 0.580285 0.131326
0.109265 0.601747 0.106289
0.161391 0.621503 0.079453
0.435318 0.700018 0.071284
0.722904 0.780130 0.135465
0.861143 0.796801 0.211769
0.912445 0.791288 0.246328
0.939729 0.788961 0.277849
0.958325 0.787162 0.321244
0.971721 0.786960 0.366888
0.981196 0.783099 0.394255
0.987904 0.767767 0.406896
-0.003671 0.581186 0.195148
-0.012074 0.578592 0.172908
0.041743 0.581432 0.169783
0.070858 0.600638 0.164256
0.096587 0.656624 0.155458
0.114298 0.690124 0.145519
0.160869 0.698706 0.133262
0.384427 0.762522 0.099771
0.686096 0.839007 0.157990
0.856110 0.877190 0.269858
0.919248 0.881597 0.327813
0.946836 0.878091 0.373221
0.963707 0.870473 0.419152
0.974860 0.863446 0.457790
0.983231 0.855942 0.473843
0.989701 0.838308 0.478140
-0.003914 0.653080 0.211136
-0.011854 0.649686 0.189103
0.041937 0.653377 0.185721
0.070314 0.678699 0.183969
0.094144 0.734520 0.193068
0.125487 0.768707 0.204422
0.206550 0.780680 0.212646
0.390632 0.823186 0.195255
0.667308 0.885136 0.237792
0.829796 0.920735 0.354792
0.907169 0.934605 0.418237
0.946684 0.938117 0.461663
0.964920 0.930812 0.499218
0.975237 0.922308 0.530604
0.983325 0.913287 0.542347
0.989776 0.897780 0.544582
-0.004139 0.719090 0.222020
-0.011501 0.714976 0.200432
0.041916 0.720063 0.199546
0.068114 0.750711 0.211352
0.098652 0.795570 0.236363
0.166538 0.816446 0.262245
0.270562 0.832982 0.285330
0.441587 0.869558 0.302149
0.678197 0.917587 0.356683
0.814515 0.947192 0.446838
0.887697 0.957247 0.500685
0.930296 0.960728 0.534962
0.961586 0.963230 0.555976
0.974626 0.955743 0.569192
0.982910 0.946458 0.577454
0.989397 0.933490 0.581781
-0.004542 0.767114 0.233496
-0.011051 0.762327 0.212171
0.041472 0.768845 0.213861
0.065629 0.800204 0.234804
0.117599 0.832315 0.266881
0.199350 0.844016 0.299578
0.324391 0.868390 0.337428
0.492271 0.903582 0.375415
0.694560 0.941409 0.427096
0.811014 0.963511 0.490939
0.880522 0.971157 0.531544
0.920715 0.973896 0.563013
0.949685 0.975654 0.580680
0.970702 0.976256 0.585895
0.983446 0.969638 0.587667
0.989101 0.953719 0.590323
-0.005378 0.819855 0.245855
-0.008499 0.816312 0.229569
0.041883 0.823721 0.232723
0.066394 0.851645 0.254711
0.122270 0.876191 0.286836
0.207645 0.886067 0.322836
0.345166 0.913045 0.374428
0.518969 0.944915 0.430267
0.695710 0.974481 0.474342
0.805436 0.991262 0.525880
0.876104 0.996691 0.559705
0.915035 0.998228 0.589543
0.941277 0.999375 0.609801
0.959160 0.999569 0.615882
0.975364 0.999743 0.616113
0.993889 0.999783 0.619085
-0.006127 -0.283261 -0.069935
0.013951 -0.283635 -0.067720
0.034452 -0.288076 -0.067322
0.047049 -0.297974 -0.072526
0.111640 -0.308718 -0.065980
0.191960 -0.318788 0.054435
0.263230 -0.333301 0.100638
0.330565 -0.353302 0.129341
0.392342 -0.373738 0.148675
0.458346 -0.388188 0.163841
0.534642 -0.395639 0.175673
0.612879 -0.398839 0.180535
0.684152 -0.400398 0.178884
0.741885 -0.401024 0.173200
0.781161 -0.401193 0.165642
0.802358 -0.401550 0.158763
-0.005869 0.071523 0.056109
0.009988 0.069581 0.055398
0.036874 0.067004 0.053665
0.054471 0.025853 0.030062
0.125267 -0.066655 0.046345
0.204736 -0.088405 0.066817
0.282973 -0.099850 0.077637
0.367202 -0.110148 0.086302
0.447067 -0.119295 0.093005
0.522870 -0.123200 0.094900
0.596939 -0.122249 0.092336
0.666146 -0.117005 0.085993
0.727603 -0.109220 0.078004
0.777404 -0.100470 0.070123
0.811040 -0.093492 0.063971
0.837138 0.099405 0.051464
-0.004814 0.043090 0.062775
-0.008134 0.043962 0.063405
0.033741 0.044229 0.063813
0.051988 0.043909 0.058730
0.135122 0.040337 0.046415
0.224963 0.042240 0.035270
0.304759 0.047122 0.028798
0.384476 0.051628 0.026003
0.458663 0.054997 0.025036
0.529081 0.056213 0.024684
0.598307 0.054927 0.024738
0.664335 0.052593 0.024453
0.723442 0.046304 0.022053
0.771293 0.040926 0.020216
0.803498 0.024846 0.010851
0.839359 0.082436 0.054992
-0.003671 0.081760 0.072893
-0.008499 0.082544 0.069345
0.026881 0.083956 0.062131
0.042858 0.090664 0.056575
0.151900 0.092480 0.039243
0.255900 0.091424 0.028137
0.343870 0.093094 0.023054
0.422571 0.095352 0.020532
0.495102 0.096617 0.019129
0.564128 0.096997 0.018432
0.631431 0.098396 0.018565
0.694920 0.102990 0.019710
0.751136 0.109372 0.021731
0.794993 0.114687 0.023388
0.823991 0.116632 0.023084
0.854085 0.125983 0.056334
-0.002932 0.128534 0.086605
-0.006308 0.129063 0.081317
0.009839 0.130885 0.057735
0.033349 0.144303 0.053246
0.141633 0.157912 0.039862
0.284505 0.166697 0.030496
0.383892 0.166403 0.024976
0.465292 0.165583 0.022205
0.539931 0.162102 0.020742
0.610899 0.161537 0.020205
0.676448 0.163536 0.020784
0.735824 0.166656 0.022007
0.786704 0.170890 0.024161
0.824488 0.174589 0.026269
0.848661 0.175220 0.026317
0.870709 0.177271 0.060675
-0.002549 0.179643 0.098496
-0.003795 0.179982 0.092747
-0.013659 0.179765 0.056929
0.042720 0.197245 0.056075
0.099354 0.223088 0.044470
0.280808 0.246793 0.037819
0.421121 0.257175 0.034171
0.505972 0.254554 0.028450
0.581218 0.249697 0.026955
0.650457 0.243156 0.025898
0.715546 0.238944 0.026344
0.771550 0.237548 0.027913
0.815930 0.237719 0.030048
0.848929 0.240474 0.032673
0.870964 0.240516 0.033189
0.888695 0.240516 0.070394
-0.002549 0.236928 0.113620
-0.001740 0.237002 0.107660
-0.016650 0.233597 0.061426
0.053825 0.255303 0.063915
0.044801 0.288148 0.050920
0.249978 0.332262 0.040044
0.442997 0.357560 0.048178
0.558660 0.360628 0.046950
0.633987 0.353071 0.044797
0.699947 0.343666 0.043575
0.758222 0.333983 0.041600
0.808838 0.326513 0.040563
0.851528 0.323931 0.041411
0.884056 0.328318 0.045127
0.906192 0.330074 0.047106
0.921702 0.328390 0.087629
-0.002750 0.301676 0.132634
0.002179 0.301499 0.126997
-0.017234 0.295219 0.075556
0.058624 0.319700 0.078829
0.053629 0.357361 0.065771
0.169226 0.402659 0.046787
0.435362 0.455361 0.062176
0.602758 0.472033 0.080367
0.692346 0.466307 0.076535
0.763192 0.457957 0.069850
0.822124 0.449849 0.063183
0.869978 0.442133 0.057819
0.907540 0.439669 0.057821
0.934463 0.445054 0.066702
0.952061 0.449019 0.076635
0.961138 0.445327 0.130400
-0.002750 0.374637 0.164811
0.002716 0.374115 0.158787
-0.017365 0.366355 0.105903
0.059515 0.390387 0.112001
0.082407 0.428374 0.095542
0.066720 0.455199 0.066692
0.339286 0.517583 0.062401
0.608093 0.575623 0.098824
0.740683 0.585712 0.109579
0.822576 0.585453 0.099215
0.877384 0.576928 0.092233
0.914351 0.568092 0.093302
0.940332 0.566880 0.116006
0.957417 0.571432 0.153953
0.968514 0.571630 0.182117
0.975395 0.566288 0.234753
-0.003100 0.450487 0.195492
0.003345 0.449962 0.189493
-0.017293 0.441350 0.136687
0.059718 0.459315 0.140352
0.090745 0.501312 0.122773
0.069044 0.518162 0.090362
0.212348 0.562031 0.060610
0.520214 0.640705 0.085853
0.752291 0.699100 0.127425
0.852561 0.697089 0.148833
0.902427 0.688812 0.165535
0.930678 0.681963 0.184067
0.950924 0.682640 0.221677
0.965285 0.686601 0.266713
0.975917 0.685518 0.295726
0.982925 0.677482 0.338844
-0.003256 0.523826 0.221505
0.004111 0.522889 0.215100
-0.017102 0.512207 0.160207
0.059951 0.526425 0.162113
0.091909 0.572227 0.142971
0.105380 0.601536 0.116642
0.128929 0.615570 0.087430
0.415095 0.695657 0.073571
0.717189 0.779882 0.138933
0.860654 0.797532 0.217896
0.912839 0.791994 0.252991
0.939965 0.789040 0.284048
0.958583 0.786837 0.327309
0.971941 0.786338 0.372245
0.981471 0.781833 0.397989
0.987855 0.769555 0.431031
-0.003540 0.594462 0.238899
0.004942 0.592860 0.231839
-0.016832 0.577942 0.173548
0.060096 0.593693 0.172922
0.091109 0.646394 0.163982
0.110070 0.689855 0.153602
0.136955 0.694285 0.144438
0.360121 0.757499 0.103766
0.677717 0.837855 0.159256
0.853693 0.877435 0.275152
0.919037 0.882200 0.333842
0.946944 0.878585 0.379610
0.963869 0.870716 0.425297
0.974951 0.863360 0.463222
0.983452 0.855433 0.477658
0.989791 0.840013 0.499848
-0.003795 0.669983 0.255002
0.005923 0.668298 0.248608
-0.016418 0.648760 0.189379
0.059718 0.669581 0.190801
0.088288 0.724002 0.197291
0.117844 0.766962 0.209369
0.186946 0.777574 0.220100
0.367332 0.818665 0.200640
0.658157 0.883544 0.238538
0.826877 0.920561 0.359240
0.906252 0.934603 0.423539
0.946476 0.938259 0.467442
0.964879 0.930875 0.504965
0.975326 0.922378 0.535763
0.983501 0.913093 0.546595
0.989683 0.898949 0.564652
-0.004029 0.740132 0.270657
0.006922 0.738047 0.264174
-0.015889 0.713324 0.200048
0.058004 0.739689 0.212569
0.090260 0.787271 0.236661
0.154040 0.814357 0.264286
0.250851 0.829591 0.287458
0.421442 0.865718 0.304717
0.670079 0.915882 0.357452
0.811623 0.946854 0.450321
0.886621 0.957252 0.505099
0.929825 0.960827 0.539860
0.961280 0.963279 0.561151
0.974673 0.955880 0.574141
0.983036 0.946512 0.581434
0.989494 0.933196 0.600559
-0.004029 0.790040 0.286766
0.005220 0.787398 0.279228
-0.016998 0.759176 0.208444
0.054742 0.787702 0.229021
0.103403 0.825759 0.262552
0.183442 0.841897 0.297511
0.304888 0.865004 0.334818
0.473858 0.900314 0.375656
0.686716 0.939942 0.427250
0.807807 0.963320 0.493338
0.879347 0.971204 0.534737
0.919953 0.973864 0.566774
0.949267 0.975845 0.584914
0.970734 0.976252 0.590350
0.983361 0.969908 0.591362
0.989114 0.953237 0.609306
-0.005452 0.842104 0.300188
0.006248 0.839856 0.293262
0.029873 0.834449 0.271433
0.064580 0.852631 0.283491
0.119436 0.875985 0.311813
0.202209 0.886078 0.342886
0.333745 0.910437 0.385121
0.512644 0.942351 0.442618
0.693949 0.973264 0.487680
0.805643 0.990796 0.539487
0.875610 0.996591 0.574392
0.914305 0.998205 0.603931
0.939734 0.999407 0.622662
0.957381 0.999582 0.624220
0.973456 0.999705 0.623666
0.992653 0.999627 0.639047
-0.006308 -0.292952 -0.070288
0.016869 -0.292093 -0.065714
0.038575 -0.293240 -0.056763
0.049076 -0.299610 -0.068174
0.107748 -0.308942 -0.057438
0.188721 -0.318432 0.070384
0.263002 -0.332118 0.113063
0.334520 -0.351891 0.138292
0.404562 -0.372635 0.159613
0.481713 -0.387722 0.175688
0.567792 -0.395288 0.185824
0.651747 -0.398717 0.187218
0.722273 -0.400342 0.181743
0.775524 -0.401070 0.173350
0.811040 -0.401284 0.161256
0.829804 -0.401517 0.146994
-0.005869 0.073828 0.096716
0.005863 0.068891 0.098616
0.039529 0.059490 0.100849
0.056097 -0.027936 0.091729
0.118987 -0.069608 0.086387
0.200653 -0.089159 0.086542
0.281156 -0.101922 0.077107
0.369251 -0.113393 0.090029
0.457341 -0.122761 0.099278
0.542360 -0.126791 0.102490
0.624618 -0.125620 0.100244
0.698765 -0.120312 0.094141
0.759654 -0.112658 0.086362
0.805591 -0.104245 0.078644
0.836454 -0.097293 0.071698
0.859256 0.099321 0.061108
-0.004542 0.051117 0.100431
-0.009099 0.050975 0.105655
0.033924 0.047590 0.107678
0.049937 0.044240 0.107460
0.129592 0.040812 0.101330
0.226592 0.041087 0.089319
0.310373 0.044877 0.082221
0.397734 0.049307 0.078659
0.484067 0.053139 0.077685
0.565697 0.055527 0.077693
0.641947 0.056455 0.077881
0.709324 0.056455 0.077467
0.765050 0.053226 0.071152
0.807497 0.049711 0.066758
0.835150 0.035901 0.060629
0.862690 0.078849 0.088616
-0.003540 0.085092 0.105012
-0.008340 0.085863 0.105985
0.026649 0.087524 0.108054
0.042501 0.088864 0.107510
0.133317 0.080908 0.091922
0.245123 0.069296 0.073456
0.341253 0.061933 0.062595
0.426771 0.050541 0.053170
0.501574 0.040842 0.044201
0.566779 0.031642 0.035995
0.627119 0.019913 0.028042
0.686352 0.023228 0.025087
0.742810 0.037677 0.028635
0.785706 0.045286 0.030280
0.817349 0.056244 0.035425
0.867105 0.112832 0.083988
-0.002932 0.130353 0.120231
-0.006125 0.130936 0.118972
0.010829 0.133490 0.113725
0.038199 0.142958 0.110218
0.117945 0.151404 0.096585
0.271144 0.150765 0.073756
0.383271 0.143598 0.058604
0.469430 0.137165 0.049279
0.545748 0.131002 0.042039
0.614106 0.130223 0.037266
0.676608 0.132529 0.034674
0.734492 0.136004 0.034347
0.783768 0.140374 0.034906
0.819193 0.142919 0.033989
0.844731 0.144721 0.037640
0.878516 0.167244 0.090581
-0.002549 0.182330 0.135773
-0.004029 0.182708 0.133448
-0.007178 0.184175 0.122641
0.033419 0.193528 0.101713
0.050019 0.217630 0.091373
0.261724 0.241838 0.074811
0.423406 0.246463 0.061550
0.510219 0.237736 0.049673
0.586195 0.228992 0.043341
0.656151 0.221328 0.039566
0.720345 0.217653 0.038364
0.774426 0.216590 0.038370
0.817527 0.217683 0.039639
0.848581 0.219202 0.039767
0.869444 0.218678 0.043023
0.893972 0.232459 0.101879
-0.002549 0.241204 0.153405
-0.002750 0.241430 0.150517
-0.004900 0.242027 0.138013
0.023823 0.243291 0.093228
-0.019071 0.279541 0.086387
0.205057 0.326283 0.064584
0.440657 0.358395 0.068811
0.561985 0.354789 0.062813
0.636418 0.341910 0.057910
0.701762 0.328906 0.054122
0.759494 0.317070 0.050739
0.809448 0.308828 0.049072
0.850892 0.307272 0.050135
0.882153 0.311207 0.051959
0.903155 0.311554 0.054039
0.926498 0.324401 0.122126
-0.002750 0.307940 0.173714
