presets/luts/creative/cinematic-gold-02.cube
LUT_3D_SIZE 6
-0.005692 -0.006816 0.016585
0.049985 -0.007745 0.013818
0.274575 -0.010033 0.008399
0.511728 0.014017 0.004423
0.715764 0.022110 0.007009
0.823434 0.036855 0.010655
-0.007026 0.079253 0.021254
0.053646 0.091819 0.017308
0.337804 0.112103 0.004805
0.568356 0.118575 0.006094
0.756221 0.132028 0.009988
0.847091 0.137630 0.014015
-0.007834 0.232338 0.050265
0.063376 0.264218 0.047642
0.439817 0.355207 0.035001
0.699445 0.351551 0.032685
0.853969 0.335030 0.029487
0.919184 0.331619 0.038355
-0.008258 0.440259 0.125926
0.072734 0.470451 0.123377
0.248982 0.568645 0.049763
0.851328 0.695643 0.133767
0.950419 0.684005 0.206530
0.982656 0.671511 0.284713
-0.008380 0.647376 0.176400
0.072790 0.683014 0.174050
0.209993 0.780704 0.201506
0.830031 0.920683 0.343706
0.964880 0.930512 0.487456
0.989780 0.896663 0.524651
-0.007834 0.812730 0.209480
0.069332 0.852867 0.239202
0.349597 0.913776 0.363749
0.805146 0.991350 0.510605
0.941792 0.999384 0.593490
0.994729 0.999625 0.599588
-0.006308 -0.292952 -0.070288
0.049076 -0.299610 -0.068174
0.263002 -0.332118 0.113063
0.481713 -0.387722 0.175688
0.722273 -0.400342 0.181743
0.829804 -0.401517 0.146994
-0.003540 0.085092 0.105012
0.042501 0.088864 0.107510
0.341253 0.061933 0.062595
0.566779 0.031642 0.035995
0.742810 0.037677 0.028635
0.867105 0.112832 0.083988
-0.002549 0.241204 0.153405
0.023823 0.243291 0.093228
0.440657 0.358395 0.068811
0.701762 0.328906 0.054122
0.850892 0.307272 0.050135
0.926498 0.324401 0.122126
-0.003100 0.461722 0.241122
-0.012311 0.446507 0.154916
0.167441 0.554394 0.075315
0.853706 0.698656 0.158959
0.951760 0.679494 0.229150
0.983680 0.686354 0.383970
-0.004347 0.695408 0.310655
-0.012428 0.655192 0.203923
0.168921 0.777414 0.226475
0.820023 0.920059 0.362238
0.964882 0.931279 0.510752
0.989934 0.899135 0.578543
0.019749 0.864496 0.358024
0.077018 0.865965 0.334996
0.322898 0.908130 0.402974
0.813739 0.989954 0.549797
0.941256 0.998583 0.634097
0.993170 0.998869 0.647580
0.097033 -0.324640 0.156649
0.130718 -0.323558 0.206836
0.231461 -0.332512 0.206885
0.515273 -0.386187 0.255298
0.796479 -0.395332 0.262190
0.884954 -0.395758 0.234954
-0.002932 0.113213 0.249267
0.055180 0.092132 0.282713
0.315833 0.046765 0.288733
0.640183 0.025760 0.240778
0.845413 0.045437 0.228023
0.907755 0.127005 0.241734
-0.002549 0.257434 0.286556
0.023728 0.265750 0.294487
0.289358 0.337679 0.341114
0.689485 0.226193 0.207111
0.874393 0.231504 0.201036
0.943821 0.358813 0.317486
-0.003100 0.499742 0.390956
0.016226 0.503186 0.380539
0.069468 0.575347 0.312973
0.854738 0.716116 0.312328
0.960470 0.683612 0.380701
0.985669 0.722578 0.543998
0.048480 0.786198 0.500418
0.063582 0.780993 0.478518
0.071994 0.758631 0.332276
0.744792 0.912971 0.406974
0.965659 0.932329 0.557203
0.989944 0.907031 0.650254
0.085718 0.911764 0.519511
0.150641 0.910946 0.512390
0.332491 0.918244 0.520640
0.840002 0.992954 0.652697
0.947578 0.996302 0.678711
0.996007 0.996502 0.678351
0.190370 -0.342973 0.353517
0.206794 -0.343212 0.398137
0.261946 -0.364269 0.409276
0.526743 -0.398740 0.393627
0.804819 -0.405449 0.412037
0.888254 -0.405604 0.382090
-0.002549 0.135723 0.433130
0.048609 0.101278 0.496022
0.283468 0.045430 0.557019
0.640772 0.027572 0.480375
0.845222 0.058150 0.453414
0.901426 0.151073 0.451424
-0.002750 0.304991 0.477541
0.017753 0.304090 0.496756
0.135800 0.286770 0.564699
0.699460 0.248390 0.578113
0.879810 0.273813 0.536294
0.949428 0.437008 0.581220
-0.008217 0.550304 0.573995
-0.007516 0.559001 0.581935
0.200834 0.694612 0.716443
0.744000 0.728133 0.715851
0.949125 0.683079 0.661067
0.981840 0.802049 0.782515
0.117691 0.851836 0.697668
0.139995 0.853467 0.691714
0.195281 0.864496 0.671902
0.680065 0.913695 0.693647
0.962626 0.943202 0.734483
0.987665 0.923961 0.816969
0.130963 0.934791 0.692237
0.201766 0.936296 0.697954
0.530007 0.979223 0.792416
0.887502 1.003396 0.897000
0.951822 1.012381 0.901803
0.997638 1.020508 0.923260
0.236176 -0.348779 0.545382
0.240742 -0.350686 0.582048
0.271743 -0.389644 0.612529
0.566386 -0.410334 0.585698
0.794730 -0.410461 0.596039
0.855252 -0.412638 0.547014
-0.002549 0.150835 0.626601
0.031980 0.091014 0.659243
0.244066 0.035550 0.731547
0.646550 0.044185 0.691428
0.829463 0.074387 0.654725
0.879693 0.162594 0.617121
-0.002750 0.336260 0.655100
0.016750 0.325353 0.669192
0.114939 0.253746 0.781299
0.635242 0.215426 0.809478
0.868468 0.278394 0.762729
0.932914 0.421974 0.778611
-0.018219 0.604897 0.766963
0.023255 0.606876 0.774621
0.171134 0.626862 0.872217
0.795498 0.802075 0.963896
0.945513 0.816313 0.959835
0.981862 0.866905 0.952441
0.129584 0.849916 0.886679
0.152937 0.851254 0.888013
0.219675 0.859216 0.896383
0.749443 0.929860 0.968988
0.928751 0.938115 0.967213
0.986422 0.946544 0.962781
0.147495 0.937981 0.880631
0.222146 0.939530 0.880996
0.605774 0.993516 0.948533
0.889041 1.016684 0.979589
0.951193 1.023445 0.990208
1.000892 1.028814 0.990638
0.242805 -0.348127 0.617124
0.244665 -0.350994 0.652666
0.253273 -0.391149 0.693901
0.539210 -0.411242 0.675057
0.775437 -0.414704 0.664371
0.851294 -0.415764 0.629635
-0.004244 0.144469 0.697093
0.058006 0.124057 0.723413
0.192777 0.073756 0.819985
0.617865 0.084789 0.791752
0.820824 0.118040 0.747885
0.877805 0.158568 0.707623
-0.002932 0.320492 0.719441
0.056984 0.317801 0.733843
0.125728 0.264363 0.821499
0.540109 0.234184 0.872080
0.855654 0.348752 0.873714
0.940209 0.441634 0.876531
-0.018178 0.575134 0.810883
0.060016 0.578404 0.828559
0.286692 0.615967 0.919963
0.824317 0.832198 0.988751
0.925628 0.847536 0.988764
0.979283 0.886080 0.994347
0.121278 0.798234 0.922700
0.173572 0.800817 0.923293
0.473975 0.842184 0.965785
0.809701 0.914310 0.995073
0.939457 0.947595 0.999991
0.983292 0.953784 0.999820
0.139612 0.901408 0.927818
0.207481 0.902847 0.929216
0.574847 0.958970 0.986265
0.862723 0.985343 0.999587
0.943112 0.990290 1.000020
0.990678 0.995731 1.000020
