presets/luts/creative/clean.cube
LUT_3D_SIZE 16
0.017470 0.022362 0.013785
0.020427 0.022362 0.017378
0.049399 0.018982 0.017378
0.087412 0.015874 0.026272
0.135627 0.000679 0.031650
0.206782 0.000000 0.042595
0.314193 0.000000 0.046433
0.432436 0.000000 0.044912
0.547572 0.000000 0.041828
0.648351 0.000000 0.033164
0.739931 0.000000 0.028764
0.816290 0.000000 0.033600
0.875254 0.000000 0.039767
0.912458 0.000000 0.052985
0.922712 0.000000 0.072918
0.922712 0.000000 0.112671
0.018062 0.023656 0.014512
0.025914 0.026828 0.018240
0.057125 0.026055 0.018094
0.093757 0.017446 0.022523
0.147583 0.002221 0.024902
0.224735 0.000000 0.027563
0.332891 0.000000 0.029900
0.447689 0.000000 0.031615
0.559074 0.000000 0.031131
0.658148 0.000000 0.028662
0.745118 0.000000 0.028775
0.820127 0.000000 0.033588
0.878257 0.000000 0.042355
0.912619 0.000000 0.055334
0.922712 0.000000 0.077101
0.922712 0.000000 0.117823
0.036977 0.055918 0.036286
0.045476 0.051392 0.042819
0.051403 0.057874 0.047542
0.117614 0.072352 0.027013
0.192104 0.061277 0.024482
0.286012 0.018486 0.024276
0.393511 0.000000 0.028613
0.498755 0.000000 0.027547
0.599997 0.000000 0.028194
0.689978 0.000000 0.028602
0.771040 0.000000 0.033618
0.835896 0.000000 0.038316
0.886759 0.000000 0.047784
0.916485 0.000000 0.062626
0.922712 0.000000 0.085866
0.922712 0.000000 0.131695
0.065275 0.089140 0.071305
0.074158 0.085892 0.082473
0.076750 0.089140 0.085796
0.083741 0.096091 0.090227
0.193986 0.141339 0.058131
0.339122 0.149340 0.020950
0.446231 0.111899 0.018530
0.546603 0.026894 0.017956
0.639422 0.000000 0.024414
0.721633 0.000000 0.028332
0.794714 0.000000 0.033631
0.852995 0.000000 0.042956
0.894330 0.000000 0.056111
0.918816 0.000000 0.074384
0.922712 0.000000 0.098534
0.922712 0.000000 0.148187
0.126641 0.173770 0.160511
0.148463 0.181109 0.186877
0.147157 0.174548 0.186766
0.143863 0.168905 0.184063
0.149178 0.173279 0.182477
0.295647 0.242913 0.133380
0.484846 0.279494 0.060944
0.613431 0.260542 0.021948
0.692895 0.213677 0.020950
0.765931 0.158329 0.023782
0.820071 0.078191 0.027996
0.869689 0.000000 0.056950
0.903519 0.000000 0.072451
0.920719 0.000000 0.094975
0.922712 0.000000 0.125953
0.922712 0.000000 0.171624
0.198788 0.267043 0.258290
0.232198 0.285670 0.293634
0.235533 0.271724 0.299460
0.228873 0.264352 0.294360
0.223092 0.258828 0.287293
0.227205 0.262421 0.287293
0.389872 0.347611 0.229722
0.574139 0.401904 0.151781
0.718367 0.419644 0.065913
0.787457 0.391154 0.055860
0.835300 0.352681 0.058539
0.880645 0.319597 0.069285
0.908320 0.287525 0.084955
0.921384 0.254848 0.104028
0.922712 0.228870 0.131835
0.922712 0.229357 0.178663
0.313289 0.397881 0.386448
0.355230 0.427602 0.431270
0.359456 0.409201 0.441078
0.351737 0.397881 0.431939
0.341136 0.384078 0.419422
0.331108 0.377135 0.407652
0.332340 0.373824 0.405618
0.489464 0.459388 0.352278
0.646305 0.514349 0.266391
0.774014 0.541416 0.177574
0.848271 0.533320 0.133380
0.885307 0.502707 0.134155
0.909222 0.468447 0.146931
0.921793 0.436760 0.170537
0.922712 0.410273 0.194687
0.922712 0.405865 0.245726
0.417003 0.515769 0.505301
0.453652 0.539757 0.546293
0.459319 0.525567 0.553849
0.460582 0.514023 0.554675
0.450790 0.503334 0.545670
0.444173 0.496080 0.537739
0.434170 0.485296 0.523261
0.433875 0.483602 0.521495
0.567438 0.560970 0.474134
0.702797 0.609141 0.400021
0.810925 0.631320 0.319939
0.883926 0.629090 0.255397
0.909222 0.599145 0.255397
0.921023 0.563374 0.271126
0.922712 0.535284 0.293381
0.922712 0.532958 0.348968
0.513899 0.615989 0.621266
0.540182 0.637240 0.651737
0.544001 0.626462 0.656066
0.550042 0.616793 0.669915
0.543207 0.608263 0.660588
0.539644 0.600487 0.652097
0.530364 0.590369 0.641039
0.523497 0.582835 0.630639
0.524503 0.582835 0.631435
0.638426 0.652676 0.598225
0.753594 0.700470 0.545328
0.844299 0.716454 0.485346
0.899817 0.701394 0.425871
0.920052 0.672183 0.413980
0.922712 0.645029 0.438842
0.922712 0.644925 0.486637
0.595389 0.705951 0.729606
0.614896 0.720514 0.752688
0.614896 0.712996 0.756413
0.621409 0.705351 0.765412
0.621979 0.700042 0.767513
0.618322 0.695269 0.762296
0.613718 0.686364 0.755703
0.608086 0.679261 0.746073
0.600152 0.671569 0.734081
0.596499 0.667178 0.729601
0.686209 0.727279 0.706150
0.792186 0.770476 0.672239
0.864156 0.784157 0.634639
0.908511 0.771781 0.607201
0.922712 0.740910 0.588986
0.922712 0.743167 0.632820
0.670317 0.791353 0.834963
0.675709 0.796937 0.846440
0.680972 0.794052 0.850619
0.686208 0.786429 0.853730
0.688723 0.777942 0.862012
0.687962 0.776949 0.860997
0.687082 0.772318 0.855905
0.679129 0.767423 0.850655
0.677393 0.762699 0.843311
0.670317 0.754049 0.835043
0.670317 0.753052 0.835043
0.744244 0.802464 0.818168
0.824574 0.837960 0.798098
0.884180 0.852275 0.785614
0.915863 0.846017 0.782314
0.922712 0.826555 0.771720
0.733158 0.862044 0.919845
0.731455 0.855797 0.916963
0.736220 0.858451 0.922447
0.740866 0.854550 0.928529
0.746838 0.850355 0.935665
0.746838 0.845008 0.935874
0.746026 0.844214 0.934228
0.742780 0.840765 0.931068
0.738672 0.836744 0.928516
0.735580 0.832155 0.925162
0.730410 0.827558 0.916204
0.734607 0.831174 0.920743
0.790850 0.869409 0.915589
0.855777 0.901187 0.911620
0.899386 0.913436 0.915372
0.919145 0.912666 0.922142
0.788252 0.915128 0.980929
0.790614 0.915128 0.983764
0.793003 0.913834 0.986717
0.797646 0.911252 0.990315
0.799920 0.908666 0.992951
0.804854 0.907116 1.000442
0.802554 0.903535 0.997620
0.801136 0.903907 0.995119
0.800868 0.903198 0.995169
0.798832 0.899469 0.993323
0.797047 0.899103 0.991797
0.794184 0.895435 0.989028
0.796177 0.896592 0.990118
0.837437 0.924298 0.991758
0.884157 0.949277 0.993323
0.910767 0.960228 1.001808
0.838046 0.955711 1.027143
0.838046 0.953937 1.027703
0.839477 0.953937 1.029021
0.842409 0.953937 1.032225
0.844862 0.952318 1.033101
0.849651 0.950755 1.037177
0.848674 0.947843 1.037440
0.849092 0.947551 1.038207
0.849588 0.948573 1.038494
0.848705 0.946551 1.036708
0.848272 0.947492 1.037300
0.848705 0.947619 1.037642
0.847038 0.946120 1.035723
0.853703 0.951261 1.039922
0.877184 0.967791 1.042879
0.904501 0.980709 1.047713
0.874645 0.979980 1.055517
0.877859 0.982290 1.058607
0.876109 0.979980 1.056665
0.878095 0.979980 1.058709
0.880152 0.979926 1.061150
0.882822 0.979980 1.062083
0.883655 0.977611 1.065028
0.882995 0.977076 1.064605
0.885308 0.978347 1.065375
0.885308 0.977852 1.064883
0.885308 0.979509 1.065028
0.885857 0.979509 1.067371
0.887455 0.980376 1.067368
0.889444 0.983407 1.069144
0.894330 0.986263 1.072461
0.898268 0.987440 1.068486
0.893722 0.993377 1.071207
0.895969 0.993377 1.073864
0.894648 0.992240 1.072327
0.895969 0.992240 1.073864
0.896401 0.991766 1.073864
0.898019 0.991386 1.076309
0.898368 0.989933 1.074439
0.899908 0.989472 1.076309
0.899892 0.989472 1.076309
0.898480 0.989472 1.076309
0.898019 0.989472 1.076309
0.898019 0.989472 1.076309
0.898008 0.988338 1.074918
0.898022 0.988757 1.075451
0.896001 0.987556 1.073905
0.895969 0.987440 1.073864
0.020427 0.022362 0.017378
0.018654 0.022362 0.014512
0.049626 0.020297 0.019244
0.084167 0.013915 0.024129
0.138478 0.002837 0.031730
0.215708 0.000000 0.031245
0.325397 0.000000 0.029761
0.441926 0.000000 0.031188
0.548036 0.000000 0.030677
0.645580 0.000000 0.033152
0.732120 0.000000 0.029700
0.808821 0.000000 0.033811
0.869688 0.000000 0.041770
0.909837 0.000000 0.053612
0.922712 0.000000 0.068740
0.922712 0.000000 0.108300
0.019716 0.024295 0.018094
0.028350 0.027538 0.019613
0.057866 0.028390 0.019897
0.093209 0.025994 0.021888
0.149824 0.015772 0.024434
0.233024 0.000000 0.027767
0.338064 0.000000 0.027493
0.451780 0.000000 0.030467
0.559170 0.000000 0.031132
0.653262 0.000000 0.032245
0.737240 0.000000 0.030289
0.813349 0.000000 0.034375
0.874182 0.000000 0.042557
0.909784 0.000000 0.054086
0.922712 0.000000 0.070160
0.922712 0.000000 0.113483
0.038927 0.061065 0.041470
0.049597 0.057557 0.049401
0.055708 0.061559 0.049779
0.117666 0.075814 0.029947
0.198611 0.073663 0.024209
0.292147 0.047774 0.024482
0.397737 0.000000 0.029484
0.501670 0.000000 0.027426
0.596552 0.000000 0.027944
0.686644 0.000000 0.028591
0.764988 0.000000 0.033614
0.832186 0.000000 0.038343
0.883686 0.000000 0.047877
0.915000 0.000000 0.061933
0.922712 0.000000 0.085029
0.922712 0.000000 0.127349
0.071012 0.099296 0.080420
0.082751 0.099089 0.094277
0.083684 0.098150 0.095541
0.091120 0.104800 0.099132
0.197677 0.145799 0.064837
0.340911 0.161226 0.024209
0.447411 0.130830 0.019953
0.544803 0.060281 0.018530
0.633370 0.000000 0.025371
0.712989 0.000000 0.027461
0.786918 0.000000 0.033630
0.847005 0.000000 0.041716
0.891711 0.000000 0.056010
0.917152 0.000000 0.073154
0.922712 0.000000 0.096622
0.922712 0.000000 0.143321
0.134240 0.190222 0.174151
0.157108 0.195303 0.197576
0.158101 0.185396 0.200930
0.153573 0.181339 0.194372
0.157786 0.182905 0.194381
0.302315 0.245276 0.140161
0.482302 0.281501 0.070354
0.606388 0.266745 0.021153
0.687963 0.226297 0.020950
0.757456 0.173722 0.023673
0.816290 0.098228 0.030779
0.864590 0.016796 0.051081
0.902024 0.000000 0.074428
0.920047 0.000000 0.095776
0.922712 0.000000 0.124555
0.922712 0.000000 0.171770
0.206782 0.281886 0.268181
0.240597 0.299028 0.303863
0.246120 0.283433 0.312746
0.237721 0.274488 0.303520
0.231544 0.268007 0.294190
0.232198 0.268878 0.294361
0.398973 0.353157 0.238378
0.571552 0.398152 0.157575
0.709754 0.414792 0.065914
0.779257 0.390954 0.055192
0.831706 0.357264 0.058539
0.875255 0.321681 0.066586
0.906177 0.293781 0.083583
0.920801 0.259736 0.102298
0.922712 0.233998 0.131835
0.922712 0.230055 0.174362
0.319351 0.412616 0.397305
0.359728 0.438553 0.437264
0.367549 0.421353 0.448287
0.361083 0.407304 0.440822
0.349216 0.393200 0.429101
0.337194 0.382316 0.417461
0.339281 0.383465 0.412089
0.497150 0.467059 0.357662
0.650072 0.517215 0.274819
0.770430 0.539252 0.180796
0.845738 0.533723 0.132762
0.881989 0.501594 0.131409
0.908989 0.472550 0.146931
0.921592 0.439420 0.170397
0.922712 0.411166 0.194835
0.922712 0.407451 0.246704
0.423528 0.525567 0.512405
0.459186 0.549440 0.551992
0.466605 0.534992 0.559976
0.467305 0.521389 0.565341
0.458075 0.511162 0.554167
0.448996 0.501476 0.543086
0.436490 0.487841 0.527877
0.437791 0.487902 0.522540
0.571283 0.561554 0.474780
0.702881 0.607510 0.400325
0.808746 0.630698 0.325096
0.881413 0.626327 0.249345
0.908979 0.599784 0.256193
0.920629 0.563613 0.269050
0.922712 0.536790 0.298791
0.922712 0.533396 0.347474
0.520076 0.627617 0.629360
0.548685 0.648327 0.665643
0.554009 0.638790 0.669723
0.558405 0.626514 0.678998
0.553123 0.615692 0.671461
0.544532 0.608591 0.661604
0.538909 0.601943 0.654268
0.527776 0.589176 0.638500
0.528707 0.587466 0.635142
0.641127 0.656514 0.604484
0.751898 0.697634 0.545651
0.843413 0.714974 0.484398
0.899543 0.701334 0.426879
0.919905 0.672298 0.412991
0.922712 0.646812 0.439716
0.922712 0.644289 0.486647
0.600774 0.715312 0.736584
0.621887 0.730141 0.765799
0.624561 0.722930 0.767167
0.628447 0.713348 0.773562
0.629340 0.706124 0.778094
0.626378 0.701084 0.771719
0.621285 0.695407 0.764746
0.611959 0.684487 0.749691
0.599198 0.669948 0.735370
0.597727 0.668650 0.731168
0.687963 0.723569 0.707079
0.790257 0.770654 0.673985
0.864965 0.784544 0.638501
0.908593 0.771679 0.607039
0.922712 0.743825 0.592748
0.922712 0.743006 0.632731
0.673844 0.796049 0.840113
0.683705 0.805487 0.855961
0.689473 0.802780 0.858547
0.692652 0.796338 0.864514
0.698011 0.788168 0.872985
0.696699 0.786497 0.871482
0.693081 0.782539 0.862982
0.687590 0.776664 0.860535
0.680531 0.767517 0.850114
0.670978 0.757059 0.835831
0.670317 0.753052 0.835043
0.744751 0.804126 0.819990
0.824925 0.842237 0.801338
0.884157 0.852386 0.785034
0.915523 0.845554 0.780525
0.922712 0.824000 0.771736
0.730410 0.862320 0.919168
0.738401 0.863784 0.924970
0.740489 0.862923 0.927804
0.744752 0.858829 0.933185
0.750618 0.854598 0.939893
0.751743 0.850018 0.944704
0.748539 0.847077 0.937245
0.746026 0.844636 0.934646
0.741710 0.838333 0.929965
0.735225 0.832273 0.924536
0.730410 0.827551 0.917004
0.734639 0.832111 0.921808
0.791331 0.869756 0.916571
0.857190 0.901318 0.911898
0.899728 0.912705 0.914617
0.919145 0.911560 0.919050
0.790614 0.915128 0.983764
0.793186 0.917508 0.986464
0.795411 0.915975 0.988292
0.797780 0.913254 0.989957
0.801497 0.911365 0.995158
0.806856 0.908095 1.000442
0.807019 0.909745 1.002024
0.804990 0.908071 0.999920
0.802554 0.903936 0.997580
0.800135 0.901346 0.994033
0.796748 0.899502 0.991990
0.792602 0.896061 0.986536
0.797646 0.898457 0.992251
0.838889 0.926997 0.992947
0.884153 0.948718 0.991470
0.910815 0.958873 1.001842
0.838046 0.955711 1.027143
0.838046 0.954496 1.027317
0.839297 0.953734 1.028858
0.841927 0.953205 1.030566
0.845329 0.951364 1.033343
0.848674 0.949804 1.037175
0.851310 0.949806 1.040337
0.849651 0.948315 1.038208
0.849528 0.949218 1.038376
0.850102 0.947878 1.039007
0.848705 0.947843 1.037642
0.847166 0.946711 1.036089
0.847898 0.946939 1.036850
0.853499 0.951997 1.042075
0.877542 0.967473 1.043234
0.904038 0.981018 1.046733
0.875254 0.982046 1.057403
0.877658 0.982482 1.058188
0.878095 0.981272 1.059685
0.878291 0.980255 1.058743
0.880644 0.979980 1.061328
0.880644 0.978077 1.061978
0.883664 0.978126 1.064840
0.884665 0.977636 1.064823
0.885308 0.977611 1.064526
0.885869 0.977868 1.064959
0.887019 0.979509 1.067460
0.887165 0.979515 1.067401
0.887742 0.981241 1.067798
0.888983 0.982046 1.068672
0.893963 0.985875 1.073058
0.898484 0.987440 1.068420
0.895523 0.993377 1.073341
0.894192 0.993377 1.073577
0.894775 0.992305 1.073536
0.895969 0.992421 1.073864
0.897793 0.993069 1.075658
0.897851 0.991386 1.073856
0.898359 0.991163 1.076296
0.899392 0.989760 1.076633
0.898485 0.989472 1.076309
0.898062 0.989490 1.076325
0.899602 0.989472 1.076309
0.898012 0.989457 1.076296
0.898006 0.988919 1.075682
0.896833 0.987500 1.073856
0.897740 0.989111 1.076029
0.895969 0.987440 1.074423
0.016292 0.022325 0.032856
0.019022 0.022347 0.033951
0.047504 0.024420 0.034290
0.092404 0.015874 0.036811
0.141292 0.003498 0.039058
0.227205 0.000000 0.036309
0.338228 0.000000 0.031200
0.452223 0.000000 0.027147
0.558257 0.000000 0.031877
0.654233 0.000000 0.032249
0.737479 0.000000 0.028754
0.812824 0.000000 0.033607
0.873495 0.000000 0.041504
0.911041 0.000000 0.056061
0.922712 0.000000 0.076521
0.922712 0.000000 0.114357
0.012944 0.026733 0.037658
0.033694 0.033144 0.040299
0.055778 0.037352 0.040787
0.097514 0.030667 0.042384
0.154200 0.013054 0.036122
0.246120 0.000000 0.035789
0.352311 0.000000 0.032565
0.463357 0.000000 0.027614
0.567590 0.000000 0.029807
0.661491 0.000000 0.031832
0.744586 0.000000 0.028777
0.817202 0.000000 0.033674
0.876361 0.000000 0.042972
0.911281 0.000000 0.056735
0.922712 0.000000 0.076665
0.922712 0.000000 0.114872
0.021610 0.070210 0.059000
0.047258 0.070799 0.059318
0.074201 0.072496 0.060066
0.128384 0.073345 0.053052
0.204705 0.066254 0.048508
0.296518 0.041154 0.039021
0.400622 0.001462 0.036176
0.507825 0.000000 0.029677
0.603922 0.000000 0.027539
0.694273 0.000000 0.029986
0.768548 0.000000 0.031121
0.834336 0.000000 0.038323
0.885126 0.000000 0.047271
0.915696 0.000000 0.065788
0.922712 0.000000 0.087187
0.922712 0.000000 0.130667
0.061296 0.116736 0.090592
0.087537 0.118648 0.105378
0.096957 0.113028 0.114699
0.113008 0.123086 0.112491
0.227526 0.154644 0.082345
0.342543 0.152912 0.059344
0.444835 0.126251 0.042819
0.546702 0.078116 0.029170
0.637065 0.004241 0.027462
0.719633 0.000000 0.028132
0.789196 0.000000 0.032482
0.850079 0.000000 0.043217
0.892322 0.000000 0.056955
0.917514 0.000000 0.075044
0.922712 0.000000 0.100056
0.922712 0.000000 0.145575
0.136747 0.211143 0.187337
0.162198 0.216015 0.210276
0.172079 0.200968 0.219805
0.167447 0.196594 0.214329
0.178508 0.204725 0.209297
0.329294 0.260653 0.156723
0.496396 0.280506 0.095541
0.601886 0.260767 0.062821
0.686534 0.234865 0.037900
0.758553 0.197964 0.024969
0.816290 0.147100 0.030779
0.866449 0.076332 0.041738
0.901917 0.010288 0.076317
0.920637 0.000000 0.098567
0.922712 0.000000 0.129455
0.922712 0.000000 0.175955
0.210798 0.301711 0.278572
0.244788 0.317515 0.311199
0.258326 0.300947 0.325146
0.252580 0.292240 0.319939
0.245592 0.282797 0.309604
0.251555 0.287552 0.314783
0.419776 0.363974 0.250742
0.584744 0.400156 0.174644
0.712343 0.410814 0.103318
0.778533 0.393180 0.071700
0.831706 0.367624 0.061890
0.875604 0.340808 0.072389
0.906374 0.309942 0.085796
0.921023 0.275964 0.106794
0.922712 0.249864 0.135729
0.922712 0.240136 0.178663
0.322518 0.425775 0.404397
0.362205 0.452246 0.441428
0.373824 0.436363 0.453136
0.371251 0.417548 0.451471
0.359689 0.406786 0.439889
0.349373 0.394593 0.429630
0.354657 0.398613 0.427645
0.513383 0.476012 0.366417
0.660296 0.521102 0.289602
0.775612 0.539256 0.199865
0.842162 0.531774 0.143676
0.881876 0.506594 0.135584
0.908717 0.479127 0.150437
0.921737 0.445425 0.174857
0.922712 0.418950 0.201041
0.922712 0.412858 0.249038
0.426021 0.533492 0.518297
0.463108 0.559891 0.555336
0.469012 0.547718 0.565621
0.476391 0.530655 0.573302
0.467234 0.521253 0.564062
0.458286 0.511599 0.551955
0.445231 0.497314 0.539016
0.447782 0.497820 0.531467
0.583417 0.570680 0.484136
0.709635 0.611184 0.412837
0.812569 0.629565 0.334243
0.880911 0.627360 0.260058
0.908593 0.602835 0.259146
0.920619 0.567810 0.272570
0.922712 0.540585 0.304054
0.922712 0.536828 0.351657
0.524503 0.637240 0.637203
0.548140 0.653755 0.666333
0.556696 0.647426 0.674619
0.562811 0.634446 0.683347
0.559019 0.624337 0.679443
0.552913 0.616152 0.672403
0.544909 0.608803 0.661202
0.535411 0.595887 0.647035
0.536711 0.596295 0.643737
0.648247 0.661634 0.607376
0.759299 0.701310 0.555283
0.846317 0.714435 0.495614
0.900183 0.702413 0.431318
0.919865 0.672376 0.416848
0.922712 0.647278 0.442771
0.922712 0.645978 0.487984
0.604199 0.721951 0.742435
0.622323 0.734931 0.766710
0.626300 0.729818 0.770863
0.632632 0.721784 0.778769
0.633996 0.712969 0.785034
0.631015 0.707487 0.779183
0.623934 0.699932 0.769015
0.615297 0.689440 0.756455
0.604667 0.676486 0.740124
0.603630 0.674805 0.737486
0.694912 0.730351 0.712078
0.795227 0.773786 0.678540
0.866817 0.784047 0.644248
0.909346 0.770706 0.607709
0.922712 0.743728 0.592326
0.922712 0.743222 0.634557
0.672188 0.800790 0.840113
0.686533 0.812325 0.859186
0.690223 0.809084 0.861862
0.695947 0.802794 0.867249
0.700560 0.793641 0.877519
0.699401 0.791322 0.876624
0.696199 0.785960 0.870824
0.689650 0.778116 0.862292
0.683425 0.770498 0.854025
0.672583 0.760474 0.840640
0.672188 0.755084 0.837166
0.749706 0.808870 0.823524
0.830301 0.843286 0.806626
0.885307 0.853731 0.789641
0.915320 0.844452 0.778672
0.922744 0.826559 0.771796
0.730410 0.863249 0.920094
0.740536 0.869243 0.929641
0.742190 0.866147 0.930523
0.746493 0.862923 0.935593
0.752086 0.859080 0.941887
0.755235 0.853845 0.944704
0.750545 0.850602 0.943199
0.747552 0.846031 0.936511
0.742979 0.841259 0.931928
0.738707 0.836678 0.928065
0.732791 0.830039 0.918740
0.736525 0.834192 0.923656
0.794810 0.873543 0.919313
0.858814 0.902815 0.913876
0.898973 0.911979 0.913421
0.919147 0.912670 0.922158
0.790614 0.917508 0.983489
0.793309 0.918694 0.987271
0.795485 0.917508 0.988371
0.799707 0.917508 0.992692
0.804179 0.914945 0.996596
0.808219 0.912037 1.002320
0.809468 0.910355 1.002900
0.806838 0.907976 1.001502
0.804854 0.906774 0.999160
0.801459 0.904249 0.995872
0.799518 0.900777 0.993323
0.795410 0.897049 0.989028
0.798956 0.900519 0.993872
0.839051 0.927251 0.992786
0.884635 0.949150 0.993225
0.911265 0.959940 1.001861
0.838046 0.957040 1.027744
0.838819 0.956069 1.027707
0.841097 0.955711 1.028925
0.844229 0.955683 1.032104
0.847107 0.954857 1.034162
0.850114 0.951823 1.037017
0.851610 0.950312 1.040327
0.851610 0.949664 1.038303
0.850658 0.949664 1.039328
0.850190 0.948117 1.038561
0.850424 0.949382 1.039333
0.848705 0.947373 1.037310
0.849588 0.948534 1.038219
0.853117 0.951420 1.041624
0.878170 0.967791 1.042879
0.904557 0.981203 1.047750
0.875254 0.981561 1.056856
0.877119 0.982697 1.059631
0.877953 0.981890 1.059134
0.878387 0.981616 1.059539
0.879525 0.980309 1.060455
0.880909 0.979214 1.061966
0.883685 0.978927 1.064721
0.884564 0.978291 1.065467
0.885387 0.978709 1.066061
0.885347 0.978551 1.066061
0.887312 0.979509 1.067073
0.886541 0.980437 1.067257
0.888075 0.981150 1.067772
0.889450 0.982044 1.069372
0.893911 0.985766 1.072760
0.898266 0.987556 1.068810
0.893761 0.993377 1.072629
0.895163 0.994128 1.072854
0.895971 0.993363 1.073851
0.895969 0.992619 1.074216
0.896148 0.992810 1.074096
0.897143 0.991386 1.073872
0.898298 0.990653 1.075688
0.899029 0.989999 1.076983
0.899173 0.990170 1.077156
0.898996 0.989784 1.076665
0.899892 0.989472 1.076309
0.898759 0.988492 1.075101
0.898008 0.989450 1.076290
0.897106 0.988687 1.075214
0.896184 0.987713 1.074130
0.895912 0.987447 1.073838
0.011501 0.023870 0.063223
0.021487 0.020824 0.062964
0.052753 0.025573 0.061180
0.081175 0.026081 0.061003
0.162282 0.012209 0.080601
0.249000 0.000000 0.086076
0.339336 0.000000 0.078050
0.450107 0.000000 0.053164
0.560032 0.000000 0.042511
0.658874 0.000000 0.034555
0.748513 0.000000 0.033577
0.820512 0.000000 0.038391
0.878096 0.000000 0.043302
0.912458 0.000000 0.057549
0.922712 0.000000 0.076994
0.922712 0.000000 0.116966
0.019253 0.031525 0.069011
0.037479 0.036386 0.072245
0.062041 0.042303 0.069926
0.093459 0.046772 0.072637
0.175787 0.026769 0.087736
0.253599 0.000000 0.085597
0.351413 0.000000 0.066842
0.463675 0.000000 0.050941
0.568889 0.000000 0.046731
0.664686 0.000000 0.037313
0.753112 0.000000 0.033582
0.824215 0.000000 0.037537
0.879811 0.000000 0.047385
0.912200 0.000000 0.059374
0.922712 0.000000 0.078081
0.922712 0.000000 0.120953
0.019843 0.072903 0.099591
0.045553 0.076002 0.102444
0.082892 0.080591 0.098829
0.132172 0.079982 0.102597
0.210898 0.044245 0.094451
0.301925 0.002221 0.080035
0.401835 0.000000 0.071644
0.505668 0.000000 0.065869
0.604482 0.000000 0.058121
0.694627 0.000000 0.045373
0.775134 0.000000 0.036511
0.838647 0.000000 0.039643
0.888893 0.000000 0.052521
0.916433 0.000000 0.068027
0.922712 0.000000 0.091457
0.922712 0.000000 0.135005
0.019370 0.134941 0.127835
0.057378 0.143628 0.136390
0.106670 0.138066 0.138512
0.152233 0.143571 0.132439
0.245377 0.139895 0.112667
0.343630 0.123423 0.097434
0.444189 0.082688 0.080963
0.542563 0.030640 0.089982
0.633827 0.000000 0.077984
0.717598 0.000000 0.061875
0.793617 0.000000 0.045742
0.852889 0.000000 0.044824
0.895163 0.000000 0.060742
0.918025 0.000000 0.079373
0.922712 0.000000 0.103348
0.922712 0.000000 0.149921
0.103180 0.239721 0.206528
0.146446 0.248453 0.224800
0.184450 0.232249 0.237247
0.188663 0.220419 0.241320
0.218143 0.233556 0.227355
0.370206 0.269293 0.179313
0.501688 0.263172 0.139311
0.595548 0.237946 0.113977
0.681433 0.207739 0.092762
0.755494 0.176164 0.074384
0.817522 0.150017 0.058271
0.867167 0.123913 0.045339
0.902532 0.073505 0.059208
0.920871 0.023935 0.103831
0.922712 0.000000 0.133920
0.922712 0.000000 0.178871
0.200369 0.332324 0.293622
0.242746 0.348426 0.325109
0.266955 0.331173 0.337685
0.276456 0.316953 0.346984
0.265747 0.307985 0.336607
0.287796 0.319835 0.328178
0.453113 0.379273 0.268966
0.607656 0.403041 0.202054
0.705684 0.395251 0.155916
0.774327 0.373605 0.128268
0.831706 0.358159 0.106238
0.875255 0.343210 0.086339
0.906005 0.327643 0.090511
0.921384 0.295708 0.112244
0.922712 0.267590 0.139376
0.922712 0.253903 0.181270
0.322518 0.451980 0.416539
0.363184 0.474083 0.451819
0.378058 0.457794 0.458880
0.387090 0.436783 0.471170
0.376191 0.424457 0.459266
0.366136 0.413272 0.448659
0.381156 0.423726 0.444951
0.536037 0.490873 0.382623
0.676807 0.527394 0.312777
0.783185 0.536974 0.235406
0.840339 0.522384 0.196472
0.880982 0.503455 0.171384
0.909200 0.484745 0.159354
0.921525 0.455427 0.178311
0.922712 0.425976 0.205878
0.922712 0.418586 0.253507
0.430583 0.554632 0.528894
0.463073 0.576984 0.564319
0.474408 0.565976 0.572325
0.485432 0.548740 0.583876
0.479964 0.535377 0.579724
0.471119 0.525567 0.569092
0.459547 0.512673 0.555907
0.463817 0.513997 0.546597
