presets/luts/creative/clean.cube
LUT_3D_SIZE 6
0.017470 0.022362 0.013785
0.087412 0.015874 0.026272
0.314193 0.000000 0.046433
0.648351 0.000000 0.033164
0.875254 0.000000 0.039767
0.922712 0.000000 0.112671
0.065275 0.089140 0.071305
0.083741 0.096091 0.090227
0.446231 0.111899 0.018530
0.721633 0.000000 0.028332
0.894330 0.000000 0.056111
0.922712 0.000000 0.148187
0.313289 0.397881 0.386448
0.351737 0.397881 0.431939
0.332340 0.373824 0.405618
0.774014 0.541416 0.177574
0.909222 0.468447 0.146931
0.922712 0.405865 0.245726
0.595389 0.705951 0.729606
0.621409 0.705351 0.765412
0.613718 0.686364 0.755703
0.596499 0.667178 0.729601
0.864156 0.784157 0.634639
0.922712 0.743167 0.632820
0.788252 0.915128 0.980929
0.797646 0.911252 0.990315
0.802554 0.903535 0.997620
0.798832 0.899469 0.993323
0.796177 0.896592 0.990118
0.910767 0.960228 1.001808
0.893722 0.993377 1.071207
0.895969 0.992240 1.073864
0.898368 0.989933 1.074439
0.898480 0.989472 1.076309
0.898008 0.988338 1.074918
0.895969 0.987440 1.073864
0.011501 0.023870 0.063223
0.081175 0.026081 0.061003
0.339336 0.000000 0.078050
0.658874 0.000000 0.034555
0.878096 0.000000 0.043302
0.922712 0.000000 0.116966
0.019370 0.134941 0.127835
0.152233 0.143571 0.132439
0.444189 0.082688 0.080963
0.717598 0.000000 0.061875
0.895163 0.000000 0.060742
0.922712 0.000000 0.149921
0.322518 0.451980 0.416539
0.387090 0.436783 0.471170
0.381156 0.423726 0.444951
0.783185 0.536974 0.235406
0.909200 0.484745 0.159354
0.922712 0.418586 0.253507
0.603096 0.728524 0.748340
0.635493 0.731238 0.782593
0.630506 0.707717 0.779658
0.611527 0.683205 0.745936
0.869624 0.786060 0.653757
0.922712 0.745188 0.637487
0.791130 0.921873 0.985688
0.799592 0.918713 0.991543
0.811608 0.914073 1.006119
0.802554 0.906198 0.997620
0.801111 0.902830 0.995291
0.912192 0.960217 1.002807
0.895946 0.995041 1.073853
0.895969 0.993357 1.073865
0.898249 0.991386 1.076309
0.898292 0.989760 1.076633
0.898035 0.989505 1.076309
0.894666 0.986250 1.073768
0.000000 0.019625 0.339647
0.139826 0.027735 0.339045
0.409999 0.058367 0.360231
0.740864 0.000000 0.355786
0.864995 0.000000 0.211519
0.922712 0.000000 0.139601
0.000000 0.191661 0.438223
0.216241 0.189638 0.438194
0.469013 0.227987 0.418984
0.727535 0.000000 0.322152
0.890284 0.000000 0.184590
0.922712 0.000000 0.172042
0.129940 0.545249 0.554058
0.313288 0.549224 0.550359
0.541341 0.527606 0.519702
0.774611 0.451257 0.395486
0.908050 0.396882 0.316890
0.922712 0.374830 0.282490
0.584042 0.782976 0.773326
0.634105 0.779728 0.804641
0.662763 0.745679 0.824858
0.664533 0.735875 0.789402
0.888024 0.785901 0.703116
0.922712 0.739504 0.670094
0.786578 0.936615 0.989317
0.802795 0.938024 0.998661
0.820749 0.927364 1.013307
0.816260 0.917221 1.009355
0.812980 0.913457 1.004514
0.915856 0.959035 1.006130
0.892023 0.995428 1.071418
0.894437 0.995708 1.073534
0.897850 0.993429 1.074426
0.901557 0.991386 1.078349
0.900022 0.990338 1.077374
0.896422 0.987500 1.076129
0.000000 0.055516 0.792867
0.222117 0.049801 0.783481
0.559047 0.124414 0.734387
0.761835 0.256230 0.725856
0.917345 0.221275 0.685478
0.922712 0.000000 0.556899
0.062088 0.275280 0.806978
0.314397 0.251825 0.810856
0.584352 0.314150 0.762371
0.766370 0.423134 0.751884
0.912595 0.298247 0.679405
0.922712 0.000000 0.530855
0.233699 0.602385 0.857745
0.384884 0.604998 0.861027
0.612534 0.610638 0.818251
0.771380 0.663862 0.822210
0.907391 0.322618 0.611630
0.922712 0.000000 0.434407
0.469785 0.834865 0.893408
0.529928 0.835008 0.892801
0.644959 0.813182 0.871024
0.761575 0.802644 0.850213
0.897062 0.730665 0.752351
0.922712 0.666890 0.685193
0.749564 0.960219 0.998595
0.769351 0.959372 1.002826
0.811531 0.953263 1.014138
0.839538 0.938963 1.030169
0.839130 0.935475 1.017536
0.921014 0.953956 1.008270
0.879728 0.999581 1.067975
0.884877 0.998761 1.070478
0.895611 0.998032 1.075594
0.903055 0.994774 1.080222
0.902781 0.993243 1.079875
0.898449 0.989472 1.076309
0.243932 0.123972 1.045771
0.426770 0.157785 1.043053
0.662493 0.294110 1.033589
0.830489 0.501576 1.012376
0.904186 0.628407 0.961108
0.922729 0.724526 0.931108
0.341771 0.354838 1.046598
0.472233 0.389370 1.047403
0.670051 0.482984 1.037079
0.827687 0.608803 1.017859
0.900719 0.696552 0.975235
0.922729 0.735235 0.932748
0.443284 0.664278 1.048766
0.538377 0.684153 1.046571
0.690445 0.722346 1.040760
0.822992 0.772708 1.026398
0.893504 0.818218 1.003527
0.922794 0.762882 0.939569
0.597138 0.871293 1.049745
0.630722 0.872263 1.050346
0.707071 0.875245 1.048910
0.819144 0.887065 1.037188
0.889304 0.913987 1.033250
0.922712 0.758704 0.917935
0.720073 0.978078 1.052410
0.734208 0.978292 1.052679
0.775347 0.976557 1.050876
0.831178 0.971508 1.046944
0.884624 0.962525 1.041443
0.922712 0.931231 1.013306
0.857352 1.002500 1.067693
0.865507 1.001951 1.068808
0.878552 1.001200 1.072414
0.897992 0.999858 1.079414
0.907132 0.996713 1.083264
0.903780 0.995073 1.081078
0.505601 0.441303 1.101984
0.572077 0.491838 1.101005
0.700159 0.609984 1.098526
0.831564 0.740428 1.094529
0.915011 0.828368 1.078612
0.922712 0.873151 1.042520
0.562249 0.595392 1.099264
0.609174 0.619658 1.099905
0.719701 0.692635 1.097483
0.836696 0.787435 1.093096
0.913432 0.856370 1.081189
0.922712 0.894285 1.050513
0.639456 0.772373 1.096095
0.674390 0.786000 1.096056
0.758857 0.822354 1.094612
0.846403 0.869194 1.092939
0.911034 0.908855 1.084100
0.921924 0.930070 1.061990
0.677397 0.878102 1.092926
0.698596 0.880947 1.093129
0.761165 0.895315 1.092959
0.857211 0.938057 1.091053
0.906987 0.956751 1.087423
0.918838 0.962413 1.074630
0.785118 0.970915 1.089458
0.796378 0.972013 1.088816
0.826384 0.975506 1.088569
0.865759 0.981251 1.087767
0.902830 0.988388 1.087479
0.913989 0.991387 1.084571
0.845727 1.001240 1.081467
0.852316 1.001937 1.081212
0.868497 1.001200 1.082701
0.891370 1.001166 1.085264
0.910225 0.999744 1.087495
0.911829 0.999764 1.087495
