presets/luts/creative/creamy.cube
LUT_3D_SIZE 16
0.003949 0.004104 0.004157
0.055245 0.004384 0.011720
0.162894 0.005418 0.044880
0.347341 0.056013 0.057050
0.509097 0.103046 0.092869
0.628781 0.150249 0.133997
0.716217 0.201637 0.186616
0.781610 0.258315 0.245616
0.829998 0.315979 0.307232
0.866215 0.371069 0.366078
0.894662 0.422319 0.420793
0.917757 0.470534 0.472375
0.937369 0.518447 0.523071
0.953310 0.565512 0.572902
0.964523 0.610984 0.620592
0.968822 0.655933 0.667486
0.037148 0.005898 0.007291
0.078042 0.007418 0.013648
0.188919 0.053413 0.027528
0.361367 0.096226 0.071127
0.515690 0.130093 0.102096
0.631300 0.169148 0.142120
0.717162 0.215958 0.193774
0.781705 0.268545 0.252319
0.829811 0.323858 0.312959
0.865854 0.377090 0.370790
0.894463 0.426689 0.424213
0.917567 0.474052 0.475195
0.937353 0.521067 0.525268
0.953206 0.567594 0.574641
0.964539 0.612888 0.622295
0.968822 0.657448 0.668757
0.099616 0.119079 0.107428
0.120053 0.128765 0.102273
0.246211 0.160954 0.100605
0.405199 0.191129 0.114691
0.537334 0.210110 0.140771
0.639706 0.232987 0.177942
0.719687 0.266751 0.225986
0.781702 0.308540 0.280157
0.828722 0.354317 0.335023
0.864769 0.400093 0.388177
0.893408 0.444884 0.438866
0.916769 0.488305 0.486722
0.936800 0.532446 0.534792
0.952936 0.576630 0.582239
0.964302 0.620646 0.628999
0.968822 0.663891 0.674486
0.192724 0.249980 0.230580
0.199337 0.251360 0.229655
0.254056 0.271660 0.209620
0.419673 0.297998 0.197370
0.552821 0.321651 0.219248
0.649330 0.329490 0.246634
0.722373 0.347525 0.285661
0.780963 0.374353 0.330091
0.826827 0.406298 0.375577
0.862506 0.441261 0.420774
0.891563 0.477650 0.465309
0.915384 0.514701 0.508505
0.935900 0.553516 0.552233
0.952339 0.593597 0.596515
0.963951 0.634495 0.640870
0.968822 0.676039 0.685134
0.293149 0.379619 0.360387
0.297381 0.380042 0.358885
0.314861 0.381002 0.356124
0.393416 0.398062 0.309846
0.539721 0.409427 0.302324
0.646026 0.435780 0.336445
0.721175 0.441331 0.363192
0.779732 0.453047 0.393292
0.824281 0.471806 0.428643
0.859780 0.495408 0.464971
0.889127 0.522046 0.501876
0.913580 0.551535 0.539286
0.934560 0.583713 0.577736
0.951443 0.618236 0.617449
0.963549 0.654440 0.658000
0.968822 0.692702 0.699740
0.379281 0.491149 0.474582
0.385282 0.491824 0.474945
0.394384 0.491008 0.469237
0.412458 0.494832 0.456035
0.504293 0.493768 0.397585
0.625688 0.500525 0.398716
0.713740 0.530987 0.440772
0.773211 0.535438 0.464703
0.820878 0.543072 0.488705
0.856804 0.556360 0.516363
0.886249 0.573664 0.545255
0.911561 0.594996 0.575880
0.933185 0.620236 0.608623
0.950535 0.648889 0.643661
0.963089 0.679970 0.679991
0.968822 0.713996 0.718365
0.455174 0.584529 0.572222
0.459479 0.584787 0.572357
0.469832 0.584524 0.569953
0.481045 0.582056 0.563388
0.500332 0.586877 0.534785
0.588201 0.563578 0.471365
0.689429 0.574046 0.480260
0.762411 0.605093 0.526784
0.812344 0.613916 0.551591
0.851466 0.619024 0.570790
0.883621 0.627596 0.590990
0.909591 0.642007 0.615896
0.931674 0.661091 0.643796
0.949561 0.683620 0.673654
0.962572 0.709577 0.705827
0.968822 0.738626 0.740082
0.522568 0.659568 0.652210
0.525464 0.659678 0.652228
0.536097 0.659678 0.652104
0.543114 0.657213 0.645364
0.556245 0.653055 0.640694
0.576120 0.655512 0.596050
0.651294 0.618241 0.533754
0.738233 0.633970 0.549693
0.799031 0.663975 0.596325
0.844729 0.678032 0.622906
0.877923 0.682188 0.639522
0.906990 0.690468 0.658106
0.930553 0.703017 0.679674
0.948726 0.720328 0.705416
0.960883 0.735875 0.727395
0.968399 0.758216 0.755543
0.580614 0.719657 0.716627
0.582478 0.719462 0.716524
0.590004 0.719285 0.716298
0.598173 0.717571 0.712665
0.603390 0.714050 0.705153
0.609823 0.710821 0.692137
0.638904 0.707415 0.644449
0.700967 0.663157 0.584865
0.776102 0.682484 0.606773
0.829794 0.712031 0.652580
0.873424 0.732240 0.683372
0.902730 0.737460 0.699872
0.927850 0.746111 0.718081
0.948082 0.757949 0.738068
0.961167 0.771007 0.758622
0.968515 0.788980 0.783187
0.631299 0.768643 0.769421
0.632529 0.768520 0.769199
0.637657 0.768153 0.768902
0.646603 0.767229 0.767756
0.650075 0.764151 0.761474
0.656526 0.759604 0.755846
0.656785 0.756738 0.731308
0.691053 0.748240 0.684324
0.741225 0.701450 0.629351
0.809516 0.724658 0.656359
0.858124 0.753825 0.700863
0.898952 0.778408 0.735456
0.925536 0.786830 0.754144
0.945189 0.793623 0.769581
0.957847 0.795926 0.778252
0.967298 0.808313 0.797579
0.676516 0.813620 0.816320
0.678041 0.814194 0.816803
0.681870 0.813800 0.816359
0.689002 0.813045 0.815590
0.693978 0.810896 0.811616
0.696752 0.807190 0.805074
0.704172 0.802023 0.801006
0.702008 0.797179 0.766979
0.737442 0.785429 0.720620
0.777685 0.737110 0.669936
0.842103 0.763941 0.700968
0.885389 0.792472 0.744646
0.921901 0.818315 0.781146
0.945294 0.832131 0.804999
0.958551 0.835877 0.816327
0.967911 0.848550 0.837105
0.708843 0.845222 0.848828
0.715748 0.850614 0.854416
0.715149 0.847159 0.850689
0.720793 0.846484 0.850108
0.730849 0.847761 0.851142
0.735485 0.847326 0.848134
0.739327 0.844840 0.843746
0.740001 0.839670 0.832481
0.742134 0.830657 0.795833
0.773969 0.813034 0.748528
0.810337 0.769122 0.704454
0.870709 0.797412 0.738330
0.908967 0.824818 0.781111
0.937919 0.847330 0.814612
0.955503 0.860213 0.836491
0.966640 0.872410 0.857918
0.760888 0.890402 0.895501
0.766398 0.894114 0.899270
0.763714 0.890358 0.895150
0.764898 0.887268 0.892038
0.770374 0.885504 0.890295
0.775479 0.884834 0.888364
0.780514 0.885112 0.886454
0.787709 0.883702 0.885548
0.783123 0.879757 0.867850
0.789712 0.870208 0.833587
0.817852 0.849345 0.785981
0.851282 0.809686 0.747600
0.905287 0.837769 0.784042
0.935253 0.863298 0.826167
0.955731 0.884858 0.859797
0.968123 0.910673 0.898026
0.795033 0.918014 0.923483
0.797532 0.919226 0.924832
0.794666 0.915745 0.921208
0.796434 0.914323 0.919608
0.802978 0.915008 0.920339
0.811251 0.915744 0.921049
0.814611 0.915367 0.918939
0.816779 0.913686 0.915449
0.821606 0.910197 0.912998
0.813321 0.905483 0.889578
0.824439 0.897430 0.858218
0.851236 0.874647 0.812993
0.886051 0.842674 0.781536
0.930977 0.868984 0.820022
0.952953 0.892385 0.861159
0.967700 0.921952 0.906839
0.862542 0.962643 0.969716
0.868816 0.965933 0.973222
0.867544 0.964439 0.971735
0.867284 0.962962 0.970167
0.869722 0.962099 0.969399
0.873859 0.961702 0.969009
0.876963 0.961013 0.967802
0.877804 0.959853 0.965317
0.879033 0.958178 0.962766
0.878823 0.955510 0.957815
0.872659 0.951346 0.937874
0.883300 0.945245 0.911075
0.907149 0.924332 0.870108
0.938856 0.899644 0.847908
0.962968 0.920212 0.886976
0.968822 0.942555 0.928309
0.908630 0.987591 0.995924
0.911917 0.989153 0.997450
0.911110 0.988405 0.996707
0.912217 0.988211 0.996501
0.915119 0.988531 0.996870
0.919079 0.988900 0.997422
0.923101 0.989268 0.997972
0.923757 0.988900 0.996751
0.924065 0.988124 0.995094
0.926190 0.987488 0.994673
0.924702 0.987215 0.990062
0.924951 0.986668 0.979196
0.936551 0.985641 0.962352
0.956128 0.970696 0.934600
0.968822 0.954231 0.927602
0.968822 0.974251 0.961755
0.005306 0.004070 0.004272
0.058682 0.004580 0.011776
0.164253 0.008335 0.049672
0.343363 0.057139 0.092074
0.505253 0.103487 0.118021
0.625019 0.153148 0.154623
0.712336 0.211133 0.207249
0.777920 0.270357 0.264647
0.826970 0.326978 0.322781
0.863904 0.380302 0.378871
0.892880 0.429725 0.430891
0.916640 0.476395 0.479856
0.936613 0.523023 0.528868
0.952814 0.568846 0.577063
0.964335 0.613325 0.623572
0.968822 0.657641 0.669564
0.039465 0.006741 0.012734
0.078280 0.010575 0.021931
0.185408 0.049828 0.062187
0.357180 0.087416 0.090935
0.511627 0.126481 0.122053
0.627238 0.173213 0.163057
0.712864 0.225165 0.214921
0.777973 0.280359 0.271347
0.826736 0.334601 0.328611
0.863649 0.385851 0.382914
0.892652 0.434145 0.434188
0.916456 0.479609 0.482377
0.936588 0.525768 0.531204
0.952676 0.570939 0.578696
0.963729 0.612109 0.621888
0.968822 0.659045 0.670804
0.105213 0.124537 0.117724
0.119740 0.132105 0.116437
0.244812 0.162191 0.115740
0.400406 0.188431 0.133394
0.531543 0.210798 0.161447
0.634747 0.238479 0.198971
0.715080 0.275706 0.246470
0.777967 0.318434 0.297442
0.826035 0.363456 0.349019
0.862525 0.407941 0.399500
0.891791 0.451222 0.447558
0.915714 0.493470 0.493485
0.936113 0.536663 0.540096
0.952450 0.579741 0.586084
0.964086 0.622716 0.631658
0.968822 0.665263 0.676268
0.202213 0.257288 0.242515
0.208719 0.258766 0.241352
0.257324 0.276593 0.224081
0.417804 0.301573 0.215315
0.547653 0.323169 0.237891
0.643927 0.333828 0.264614
0.718083 0.354050 0.302100
0.777631 0.381336 0.343878
0.824303 0.413065 0.386894
0.860763 0.447284 0.430037
0.890197 0.482733 0.472527
0.914339 0.519084 0.514433
0.935159 0.557219 0.556965
0.951921 0.596440 0.600178
0.963273 0.633612 0.640381
0.968822 0.677395 0.686996
0.298273 0.383935 0.367616
0.304270 0.384581 0.366928
0.320734 0.385591 0.363955
0.395446 0.401411 0.320252
0.538316 0.412988 0.315376
0.642991 0.437616 0.347686
0.718470 0.444474 0.373321
0.777059 0.457263 0.403105
0.822124 0.476100 0.436842
0.858147 0.499702 0.472440
0.887815 0.526052 0.507831
0.912674 0.554911 0.544056
0.933869 0.586571 0.581672
0.951111 0.620604 0.620617
0.963362 0.656383 0.660524
0.968822 0.694190 0.701618
0.381185 0.493541 0.478666
0.387918 0.494170 0.479177
0.398542 0.493908 0.474439
0.416136 0.496975 0.462853
0.504799 0.496213 0.405176
0.624553 0.503147 0.407131
0.712528 0.533391 0.447758
0.771659 0.537925 0.471033
0.819396 0.545564 0.494030
0.855586 0.559066 0.521374
0.885308 0.576365 0.549833
0.910670 0.597590 0.579888
0.932524 0.622650 0.612210
0.950266 0.650680 0.646242
0.961750 0.675778 0.675837
0.968822 0.714362 0.719026
0.456187 0.586045 0.574817
0.460532 0.586240 0.574904
0.472441 0.586283 0.573334
0.483205 0.583736 0.566325
0.501867 0.588140 0.539132
0.588452 0.565327 0.476240
0.689237 0.576332 0.486315
0.761719 0.607036 0.531492
0.811441 0.615357 0.555339
0.850674 0.620868 0.574622
0.882848 0.629385 0.594355
0.908952 0.643802 0.618883
0.931255 0.662597 0.646212
0.949271 0.684990 0.675587
0.962347 0.710472 0.707033
0.968822 0.739391 0.741021
0.523380 0.660527 0.653824
0.526113 0.660520 0.653892
0.537110 0.660540 0.653780
0.544666 0.658246 0.647451
0.557656 0.654013 0.642756
0.576719 0.656426 0.599354
0.651539 0.619515 0.537102
0.738079 0.635587 0.553479
0.798639 0.665336 0.599451
0.844075 0.678957 0.625312
0.877316 0.683273 0.641690
0.906431 0.691531 0.660078
0.930116 0.704167 0.681621
0.948450 0.720935 0.706506
0.959513 0.732046 0.723356
0.968186 0.757014 0.754398
0.581077 0.720155 0.717747
0.582902 0.720067 0.717717
0.590428 0.719894 0.717401
0.599301 0.718411 0.714209
0.604509 0.714775 0.706512
0.611070 0.711476 0.694238
0.639330 0.707938 0.646550
0.701167 0.664351 0.587558
0.776040 0.683675 0.609645
0.829575 0.712968 0.654660
0.873008 0.732876 0.685019
0.902297 0.738272 0.701500
0.927604 0.746775 0.719285
0.947933 0.758574 0.739303
0.960929 0.771280 0.759178
0.968599 0.791561 0.786253
0.631519 0.769035 0.770258
0.632810 0.769102 0.770263
0.638010 0.768486 0.769665
0.647192 0.767733 0.768592
0.650959 0.764696 0.762362
0.657064 0.760357 0.756725
0.657541 0.757159 0.733057
0.691115 0.748852 0.685936
0.741536 0.702578 0.631513
0.809508 0.725644 0.658152
0.857930 0.754850 0.702660
0.898962 0.779044 0.736848
0.925319 0.787206 0.755037
0.944083 0.791525 0.767371
0.957188 0.794574 0.776908
0.967468 0.809970 0.799725
0.677326 0.814566 0.817579
0.678226 0.814506 0.817405
0.681997 0.814139 0.817006
0.689203 0.813243 0.816079
0.694638 0.811051 0.812291
0.697315 0.807609 0.805919
0.704505 0.802389 0.801610
0.702358 0.797528 0.768058
0.737494 0.785754 0.721713
0.777862 0.737782 0.671391
0.841994 0.764677 0.702570
0.885337 0.793055 0.745880
0.921868 0.818769 0.781938
0.945146 0.832142 0.805258
0.958657 0.836765 0.817638
0.968223 0.851723 0.841070
0.713905 0.849831 0.853731
0.723738 0.857727 0.861896
0.726306 0.856897 0.861178
0.731467 0.855923 0.860044
0.738624 0.854529 0.858465
0.740360 0.851550 0.852883
0.742202 0.847391 0.846577
0.742894 0.841960 0.835460
0.744025 0.832676 0.798415
0.774939 0.814347 0.750817
0.811138 0.770455 0.706649
0.870990 0.798168 0.739738
0.908633 0.824647 0.781150
0.937418 0.846852 0.814303
0.955257 0.860276 0.836687
0.966833 0.874200 0.860245
0.766664 0.894917 0.900175
0.770655 0.897545 0.902960
0.771772 0.896417 0.901849
0.774734 0.894908 0.900267
0.779676 0.893109 0.898275
0.784364 0.892070 0.896080
0.786527 0.889939 0.891850
0.790663 0.886293 0.888269
0.784451 0.880860 0.869391
0.790398 0.870967 0.834797
0.818175 0.849930 0.787314
0.851568 0.810333 0.748874
0.905337 0.838415 0.785112
0.935518 0.864001 0.827230
0.956208 0.886450 0.861974
0.968398 0.913126 0.901303
0.800207 0.921609 0.927450
0.806490 0.925619 0.931393
0.805227 0.923402 0.929175
0.806796 0.921729 0.927589
0.811543 0.921090 0.926916
0.818205 0.920664 0.926586
0.819760 0.919229 0.923089
0.820496 0.916567 0.918490
0.824440 0.912383 0.915582
0.815714 0.907428 0.892060
0.826188 0.899189 0.860664
0.852391 0.876052 0.814908
0.886317 0.843239 0.782560
0.930948 0.869161 0.820491
0.952977 0.892767 0.861786
0.967770 0.922815 0.908091
0.866127 0.964771 0.971986
0.868882 0.966024 0.973509
0.869950 0.965978 0.973421
0.872199 0.965839 0.973310
0.874998 0.965315 0.972728
0.878843 0.964679 0.972199
0.880943 0.963667 0.970532
0.880724 0.961959 0.967375
0.880690 0.959391 0.964103
0.879920 0.956132 0.958822
0.873086 0.951766 0.938559
0.883640 0.945621 0.911942
0.907440 0.924666 0.870943
0.938962 0.900048 0.848460
0.963239 0.921080 0.888278
0.968828 0.944138 0.930539
0.910631 0.988548 0.996903
0.915068 0.990459 0.999114
0.914871 0.990063 0.998629
0.915782 0.989732 0.998380
0.918014 0.989857 0.998561
0.921032 0.989926 0.998615
0.924455 0.989961 0.998828
0.924817 0.989349 0.997324
0.925055 0.988643 0.995736
0.926947 0.987948 0.995229
0.925590 0.987594 0.990805
0.925646 0.987109 0.980006
0.936775 0.985924 0.962776
0.956142 0.970857 0.934749
0.968822 0.954201 0.927776
0.968822 0.974335 0.962052
0.000000 0.025150 0.069528
0.066053 0.004697 0.075823
0.174170 0.000000 0.122251
0.334069 0.060872 0.161074
0.486760 0.135749 0.196037
0.605305 0.203583 0.241181
0.694953 0.260384 0.284282
0.764246 0.312220 0.327676
0.816547 0.362247 0.373553
0.856058 0.409270 0.418585
0.887028 0.453723 0.462599
0.912317 0.495893 0.505199
0.933736 0.538030 0.548081
0.951034 0.579814 0.591152
0.963361 0.621729 0.634189
0.968822 0.663860 0.677387
0.011964 0.035075 0.085047
0.078739 0.032023 0.091169
0.188519 0.036688 0.133461
0.339896 0.105597 0.167794
0.490181 0.162173 0.206698
0.606657 0.218840 0.248214
0.695789 0.269877 0.288655
0.764481 0.320079 0.332333
0.816546 0.368052 0.377117
0.855907 0.414093 0.422098
0.887053 0.457416 0.465279
0.912126 0.498960 0.507578
0.933711 0.540604 0.550372
0.950910 0.582009 0.592919
0.962676 0.619689 0.631700
0.968822 0.665244 0.678575
0.096614 0.144911 0.151081
0.122663 0.153668 0.159433
0.228570 0.171660 0.182455
0.369945 0.201696 0.210261
0.504933 0.233259 0.239366
0.613437 0.268647 0.271833
0.698612 0.308919 0.310000
0.765056 0.350642 0.351465
0.816336 0.392275 0.393724
0.855344 0.433129 0.435751
0.886197 0.472786 0.477084
0.911602 0.511895 0.517784
0.933266 0.551096 0.558886
0.950690 0.590679 0.600177
0.963237 0.630604 0.641708
0.968822 0.671194 0.683692
0.212182 0.275871 0.274975
0.228560 0.280730 0.278100
0.271570 0.292734 0.273871
0.407292 0.314586 0.274090
0.528612 0.332723 0.295911
0.624765 0.351460 0.321892
0.703296 0.375605 0.352716
0.766337 0.404085 0.387314
0.815753 0.435113 0.423912
0.854120 0.467545 0.461288
0.885121 0.500681 0.498340
0.910634 0.534615 0.535687
0.932589 0.570151 0.574317
0.950316 0.606816 0.613635
0.962290 0.640934 0.649843
0.968822 0.682579 0.693638
0.307893 0.396994 0.390090
0.316971 0.398538 0.390931
0.340057 0.401437 0.389949
0.400379 0.412276 0.357330
0.531910 0.425964 0.359218
0.631678 0.445581 0.385516
0.708568 0.456344 0.408874
0.767763 0.471766 0.436167
0.814904 0.491438 0.465900
0.852376 0.514459 0.497023
0.883375 0.539997 0.529089
0.909335 0.567270 0.561963
0.931563 0.597146 0.596282
0.949634 0.629381 0.632382
0.962606 0.663358 0.669602
0.968822 0.699550 0.708427
0.387141 0.501970 0.493627
0.393202 0.502648 0.494028
0.413009 0.504339 0.493749
0.429347 0.504721 0.485478
0.506905 0.504187 0.431205
0.621112 0.513845 0.437659
0.706030 0.539785 0.472235
0.765998 0.545887 0.493447
0.814020 0.555480 0.515625
0.850815 0.569437 0.540709
0.881507 0.586245 0.566297
0.907898 0.606857 0.594192
0.930482 0.630747 0.624054
0.948885 0.657806 0.656174
0.960923 0.681294 0.683406
0.968808 0.719477 0.725799
0.459605 0.591440 0.584657
0.463887 0.591711 0.584763
0.480040 0.592507 0.585262
0.491802 0.590579 0.578009
0.507897 0.592994 0.555874
0.589660 0.572071 0.495239
0.687370 0.584668 0.507468
0.758798 0.613972 0.548719
0.807867 0.620960 0.570152
0.847529 0.627003 0.587866
0.879848 0.636188 0.607082
0.906535 0.650351 0.630045
0.929526 0.668689 0.655680
0.948111 0.690406 0.683636
0.961738 0.714924 0.713447
0.968821 0.742881 0.745890
0.525515 0.664156 0.660477
0.528149 0.664164 0.660403
0.539274 0.664239 0.660240
0.551291 0.662755 0.656043
0.562883 0.658343 0.650256
0.579277 0.660070 0.611604
0.652284 0.625226 0.550929
0.737167 0.642080 0.568796
0.797365 0.670983 0.611847
0.841590 0.682735 0.634952
0.875328 0.687363 0.650741
0.904813 0.695951 0.668306
0.928750 0.708554 0.689153
0.947383 0.724910 0.712727
0.958933 0.735486 0.728612
0.968127 0.760762 0.759443
0.582554 0.722585 0.722322
0.584326 0.722567 0.722123
0.591858 0.722316 0.721807
0.603879 0.721349 0.720057
0.608990 0.717896 0.712407
0.616265 0.713816 0.702278
0.640501 0.710836 0.655674
0.701700 0.669257 0.598484
0.775375 0.688618 0.620523
0.828650 0.717413 0.663741
0.871481 0.735621 0.691718
0.901135 0.741035 0.707475
0.926657 0.749576 0.724611
0.947203 0.761387 0.744045
0.960468 0.773643 0.762951
0.968495 0.793395 0.789049
0.632641 0.771001 0.773553
0.633950 0.770853 0.773359
0.639132 0.770389 0.772741
0.648872 0.769638 0.772012
0.654270 0.766938 0.766598
0.659228 0.762610 0.760004
0.660490 0.759095 0.738903
0.691823 0.751282 0.693052
0.741836 0.706432 0.639661
0.809231 0.729606 0.666547
0.857501 0.758256 0.709373
0.898254 0.781701 0.742000
0.924564 0.789171 0.759210
0.943453 0.793177 0.770749
0.956921 0.796610 0.780280
0.967268 0.811891 0.802658
0.678102 0.816117 0.820024
0.679050 0.816016 0.819962
0.682751 0.815572 0.819420
0.689981 0.814841 0.818499
0.697141 0.812990 0.815613
0.699803 0.809282 0.808779
0.706472 0.804145 0.804389
0.704157 0.799235 0.772734
0.737901 0.787624 0.727171
0.778292 0.740996 0.677948
0.841881 0.767687 0.708744
0.885125 0.795564 0.750812
0.921717 0.821117 0.786246
0.944713 0.833649 0.808180
0.958416 0.837973 0.819979
0.968129 0.852677 0.842669
0.715527 0.851812 0.856467
0.724360 0.858613 0.863583
0.727073 0.858180 0.863014
0.732190 0.857173 0.861939
0.740247 0.855918 0.860860
0.742343 0.853117 0.855341
0.744008 0.848847 0.848638
0.745644 0.843215 0.839035
0.744724 0.833999 0.801848
0.775418 0.816245 0.755176
0.811660 0.773019 0.711563
0.871130 0.800766 0.744632
0.908561 0.826679 0.784955
0.937282 0.848624 0.817313
0.955094 0.861423 0.838709
0.966825 0.875344 0.862136
0.766248 0.895201 0.900844
0.771043 0.898345 0.904121
0.771808 0.896975 0.902832
0.774475 0.895259 0.901040
0.780340 0.894075 0.899701
0.786550 0.893655 0.898318
0.788525 0.891434 0.893901
0.791614 0.887257 0.889557
0.786357 0.881905 0.872230
0.790953 0.872145 0.837549
0.818572 0.851563 0.790594
0.851671 0.812217 0.752415
0.905480 0.840119 0.788418
0.935474 0.865524 0.830133
0.956163 0.887669 0.864069
0.968357 0.913709 0.902400
0.800754 0.922337 0.928535
0.806888 0.926266 0.932547
0.805750 0.924255 0.930456
0.807462 0.922736 0.928798
0.812560 0.922266 0.928290
0.819653 0.921734 0.928101
0.821299 0.920319 0.924651
0.821915 0.917468 0.920055
0.825732 0.913432 0.916983
0.817210 0.908589 0.894607
0.827039 0.900406 0.863518
0.852971 0.877829 0.817885
0.886536 0.844647 0.785179
0.930936 0.870396 0.822855
0.952952 0.894084 0.863992
0.967827 0.923969 0.909756
0.865637 0.964715 0.972187
0.869002 0.966360 0.973921
0.870015 0.966321 0.974013
0.872230 0.966248 0.973722
0.875000 0.965657 0.973308
0.879025 0.965201 0.972896
0.881853 0.964128 0.971362
0.881437 0.962348 0.968120
0.881122 0.959710 0.964422
0.880920 0.956421 0.959814
0.873983 0.952393 0.940205
0.884056 0.946463 0.913864
0.907691 0.925838 0.873048
0.938895 0.900975 0.850118
0.963249 0.921745 0.889578
0.968822 0.944509 0.931282
0.910588 0.988736 0.997221
0.915072 0.990611 0.999370
0.914889 0.990220 0.998853
0.915763 0.989929 0.998704
0.918022 0.989964 0.998780
0.920949 0.990073 0.998719
0.924589 0.990139 0.998930
0.925157 0.989545 0.997685
0.925361 0.988887 0.996119
0.927337 0.988221 0.995537
0.926193 0.987842 0.991556
0.926025 0.987361 0.980880
0.936738 0.986215 0.963868
0.955980 0.971581 0.936081
0.968822 0.954672 0.928521
0.968822 0.974755 0.962763
0.000000 0.078027 0.135296
0.002789 0.057701 0.142226
0.160023 0.039918 0.167786
0.325613 0.002483 0.245405
0.491947 0.118195 0.279701
0.581234 0.242744 0.315399
0.674675 0.301489 0.354130
0.746507 0.355143 0.394250
0.801478 0.404429 0.434476
0.844208 0.445781 0.470057
0.877852 0.484852 0.505443
0.905463 0.522276 0.540720
0.928929 0.559796 0.576908
0.947899 0.597025 0.613630
0.961778 0.635074 0.651564
0.968850 0.673854 0.690310
0.000000 0.106990 0.152539
0.007036 0.096096 0.159678
0.174024 0.079673 0.185797
0.338108 0.069633 0.254986
0.489815 0.157355 0.285536
0.579338 0.262626 0.324813
0.674549 0.312903 0.360853
0.746221 0.363714 0.399804
0.801330 0.409889 0.438030
0.844206 0.449792 0.472552
0.877838 0.488168 0.507763
0.905332 0.525056 0.542697
0.928766 0.561814 0.578608
0.947920 0.598936 0.615223
0.960753 0.632000 0.648048
0.968841 0.675249 0.691526
0.044212 0.198837 0.218132
0.099145 0.200547 0.227281
0.225266 0.185852 0.254851
0.368034 0.192663 0.289550
0.478815 0.263703 0.319363
0.583638 0.313529 0.353632
0.675055 0.353019 0.385455
0.746151 0.392619 0.418564
0.801681 0.429665 0.450680
0.843986 0.466120 0.483863
0.877487 0.501711 0.517623
0.905028 0.536116 0.551104
0.928521 0.571153 0.585833
0.947666 0.606773 0.621563
0.961695 0.643137 0.658228
0.968792 0.680737 0.696168
0.190045 0.296383 0.310868
0.208299 0.300773 0.314738
0.271823 0.316854 0.329551
0.380103 0.333416 0.349134
0.492348 0.357283 0.370923
0.595763 0.380999 0.393277
0.680854 0.407426 0.418049
0.749003 0.436009 0.445520
0.802128 0.465974 0.474903
0.843591 0.496433 0.505295
0.876849 0.526970 0.536305
0.904379 0.557426 0.567597
0.928144 0.588920 0.599889
0.947337 0.621778 0.633817
0.960481 0.651545 0.664321
0.968776 0.691392 0.705335
0.308706 0.407946 0.419232
0.317919 0.411431 0.421842
0.352498 0.421827 0.427383
0.403288 0.431006 0.415053
0.519586 0.445639 0.420501
0.614071 0.460333 0.440444
0.690207 0.475552 0.460925
0.752755 0.493893 0.483967
0.802824 0.514895 0.509025
0.842881 0.537781 0.535518
0.875850 0.561439 0.562324
0.903693 0.586672 0.590191
0.927447 0.614151 0.620099
0.946973 0.643786 0.651897
0.961120 0.674618 0.684615
0.968734 0.707530 0.719095
0.390025 0.515634 0.519758
0.396288 0.516248 0.519697
0.419607 0.518786 0.519839
0.448180 0.520034 0.516664
0.506829 0.520211 0.475162
0.615164 0.532411 0.486115
0.694939 0.550779 0.511165
0.756381 0.559889 0.529867
0.803990 0.571564 0.549975
0.842480 0.585914 0.571421
0.874697 0.602592 0.593742
0.902742 0.622019 0.617937
0.926709 0.644468 0.644269
0.946395 0.669781 0.673011
0.959365 0.690710 0.696516
0.968636 0.727881 0.736704
0.462555 0.600891 0.602690
0.466495 0.601148 0.602643
0.482912 0.601981 0.602091
0.507425 0.602276 0.600195
0.520213 0.601348 0.586243
0.590326 0.585412 0.528869
0.683968 0.599961 0.544271
0.753165 0.624951 0.577706
0.801281 0.630605 0.594929
0.841958 0.637642 0.610864
0.874051 0.647639 0.628562
0.901933 0.661857 0.649513
0.926190 0.679447 0.672566
0.945853 0.699897 0.697806
0.960404 0.723072 0.725037
0.968541 0.749258 0.754653
0.527997 0.670789 0.672929
0.530707 0.670776 0.672647
0.541506 0.670822 0.672047
0.561018 0.670639 0.671183
0.570718 0.666919 0.662688
0.583892 0.666767 0.634181
0.653357 0.636126 0.576558
0.735116 0.653953 0.595762
