presets/luts/creative/creamy.cube
LUT_3D_SIZE 6
0.003949 0.004104 0.004157
0.347341 0.056013 0.057050
0.716217 0.201637 0.186616
0.866215 0.371069 0.366078
0.937369 0.518447 0.523071
0.968822 0.655933 0.667486
0.192724 0.249980 0.230580
0.419673 0.297998 0.197370
0.722373 0.347525 0.285661
0.862506 0.441261 0.420774
0.935900 0.553516 0.552233
0.968822 0.676039 0.685134
0.455174 0.584529 0.572222
0.481045 0.582056 0.563388
0.689429 0.574046 0.480260
0.851466 0.619024 0.570790
0.931674 0.661091 0.643796
0.968822 0.738626 0.740082
0.631299 0.768643 0.769421
0.646603 0.767229 0.767756
0.656785 0.756738 0.731308
0.809516 0.724658 0.656359
0.925536 0.786830 0.754144
0.967298 0.808313 0.797579
0.760888 0.890402 0.895501
0.764898 0.887268 0.892038
0.780514 0.885112 0.886454
0.789712 0.870208 0.833587
0.905287 0.837769 0.784042
0.968123 0.910673 0.898026
0.908630 0.987591 0.995924
0.912217 0.988211 0.996501
0.923101 0.989268 0.997972
0.926190 0.987488 0.994673
0.936551 0.985641 0.962352
0.968822 0.974251 0.961755
0.000000 0.078027 0.135296
0.325613 0.002483 0.245405
0.674675 0.301489 0.354130
0.844208 0.445781 0.470057
0.928929 0.559796 0.576908
0.968850 0.673854 0.690310
0.190045 0.296383 0.310868
0.380103 0.333416 0.349134
0.680854 0.407426 0.418049
0.843591 0.496433 0.505295
0.928144 0.588920 0.599889
0.968776 0.691392 0.705335
0.462555 0.600891 0.602690
0.507425 0.602276 0.600195
0.683968 0.599961 0.544271
0.841958 0.637642 0.610864
0.926190 0.679447 0.672566
0.968541 0.749258 0.754653
0.634771 0.774512 0.779882
0.650662 0.773210 0.777956
0.666671 0.762931 0.750638
0.808763 0.737067 0.682192
0.923158 0.792896 0.766912
0.967097 0.815649 0.808439
0.765612 0.895868 0.902514
0.774374 0.896403 0.902972
0.791536 0.893229 0.897264
0.792272 0.874423 0.843356
0.905534 0.843591 0.794915
0.968234 0.915121 0.904651
0.910398 0.989108 0.997603
0.915638 0.990377 0.999115
0.924618 0.990447 0.999445
0.927810 0.988748 0.996024
0.936618 0.986737 0.966056
0.968822 0.975520 0.964129
0.000000 0.302043 0.408660
0.071265 0.231108 0.467767
0.663697 0.217269 0.547386
0.812608 0.509000 0.597196
0.905840 0.632842 0.678758
0.965610 0.716482 0.747957
0.000000 0.448081 0.504009
0.263055 0.413258 0.539085
0.664088 0.367842 0.577660
0.799677 0.577706 0.638978
0.905265 0.656024 0.695811
0.965740 0.729074 0.757602
0.413004 0.620803 0.657075
0.474350 0.630469 0.663734
0.646898 0.657247 0.685467
0.802151 0.687600 0.711663
0.907650 0.724641 0.745539
0.966196 0.777472 0.795854
0.643091 0.791450 0.816131
0.656200 0.793849 0.815292
0.700464 0.787324 0.801396
0.805757 0.778643 0.763908
0.913945 0.810584 0.806225
0.965174 0.835175 0.839308
0.766729 0.905731 0.919236
0.779809 0.909352 0.922095
0.804379 0.905498 0.916460
0.803641 0.888493 0.879816
0.905708 0.864029 0.833090
0.968000 0.923235 0.919136
0.906856 0.990710 1.000432
0.912226 0.991754 1.001409
0.923307 0.992190 1.001760
0.932738 0.992008 1.000469
0.936327 0.989473 0.978257
0.968822 0.979446 0.971304
0.000000 0.493333 0.636126
0.000000 0.478811 0.660914
0.555068 0.413518 0.723742
0.811816 0.400642 0.710559
0.905004 0.613952 0.731047
0.954493 0.777535 0.827266
0.000000 0.562793 0.666681
0.049938 0.552817 0.685237
0.561232 0.497873 0.739606
0.807874 0.471964 0.725847
0.899659 0.650220 0.749797
0.953282 0.781195 0.828526
0.299499 0.677352 0.741989
0.364087 0.682949 0.745748
0.579476 0.673286 0.776929
0.795818 0.651087 0.777688
0.887055 0.754905 0.811015
0.957897 0.813254 0.850360
0.588538 0.790286 0.830834
0.611746 0.794455 0.833679
0.683387 0.805033 0.838991
0.787055 0.819180 0.848801
0.892333 0.828931 0.854473
0.961307 0.851173 0.871996
0.759464 0.906746 0.934599
0.776218 0.913534 0.940403
0.804954 0.919881 0.943060
0.837181 0.913883 0.929854
0.905037 0.896895 0.891708
0.967856 0.934429 0.939719
0.890366 0.992528 1.005707
0.896533 0.993866 1.006497
0.916578 0.995736 1.007337
0.939447 0.997233 1.008118
0.940324 0.994498 0.997700
0.968822 0.986907 0.984915
0.000000 0.633526 0.792402
0.000000 0.626071 0.802446
0.305632 0.548428 0.838526
0.791245 0.603715 0.879776
0.907584 0.544686 0.822790
0.963573 0.692854 0.820160
0.000000 0.666676 0.799835
0.000000 0.660274 0.808886
0.363733 0.600343 0.842974
0.790488 0.643011 0.884315
0.901771 0.570507 0.825900
0.962953 0.712639 0.829969
0.001828 0.743420 0.830389
0.122543 0.744839 0.831441
0.474570 0.733930 0.854103
0.775956 0.739804 0.897411
0.899490 0.679737 0.858947
0.960611 0.780806 0.865582
0.453229 0.820393 0.884136
0.485950 0.826779 0.889145
0.568927 0.832087 0.889879
0.729408 0.822880 0.905170
0.889777 0.789618 0.892996
0.956938 0.872507 0.918228
0.683227 0.902072 0.941281
0.700830 0.906993 0.944969
0.747085 0.914222 0.948794
0.817528 0.924786 0.953623
0.895521 0.930972 0.955250
0.966255 0.950315 0.968815
0.875611 0.988750 1.007872
0.884549 0.990655 1.009227
0.906371 0.994605 1.011571
0.936753 0.999941 1.014770
0.955036 1.001888 1.014194
0.968822 0.998450 1.005528
0.000000 0.766134 0.931860
0.000000 0.759911 0.935111
0.253701 0.728909 0.949724
0.667704 0.715924 0.971518
0.932687 0.749532 0.986032
0.968949 0.688602 0.905840
0.000000 0.777644 0.928269
0.000000 0.773145 0.932854
0.273591 0.746661 0.947194
0.655385 0.720602 0.969449
0.927237 0.757086 0.983988
0.968900 0.694752 0.905039
0.000000 0.823008 0.935456
0.000000 0.824371 0.935339
0.189390 0.805706 0.947326
0.627869 0.763467 0.972631
0.924042 0.820810 0.990391
0.968948 0.750744 0.923538
0.000000 0.863141 0.956101
0.000000 0.863586 0.956624
0.000243 0.861334 0.954376
0.568998 0.855489 0.965160
0.902348 0.881717 0.993865
0.968822 0.825877 0.947553
0.479447 0.931434 0.991408
0.495705 0.932407 0.991800
0.553035 0.935316 0.992086
0.645609 0.938822 0.991743
0.845927 0.940360 0.998001
0.968931 0.934466 0.990333
0.818949 0.990395 1.015866
0.823465 0.990979 1.015790
0.847402 0.993278 1.016386
0.892037 0.997769 1.017426
0.945626 1.003652 1.018944
0.968822 1.006974 1.020020
