presets/luts/creative/film.cube
LUT_3D_SIZE 6
0.020281 0.045459 0.037430
0.098567 0.043298 0.037040
0.273572 0.128914 0.006671
0.549248 0.213972 0.000000
0.805568 0.285549 0.000000
1.005441 0.319204 0.000000
0.028874 0.057809 0.045918
0.093368 0.086457 0.030736
0.286908 0.157166 0.000000
0.560968 0.237155 0.000000
0.816352 0.297538 0.000000
1.010891 0.329080 0.000000
0.085647 0.149026 0.107491
0.120203 0.155184 0.118767
0.343420 0.247959 0.042956
0.623559 0.306513 0.000000
0.847829 0.342961 0.000000
1.018130 0.377144 0.000000
0.188284 0.291877 0.200616
0.227520 0.274963 0.217113
0.348934 0.338914 0.194454
0.678501 0.457536 0.072134
0.883476 0.467063 0.000000
1.022063 0.473331 0.000000
0.360924 0.516514 0.339287
0.427340 0.487592 0.353306
0.458539 0.492666 0.375191
0.710773 0.618609 0.325133
0.913638 0.652305 0.242187
1.026989 0.632196 0.216142
0.620255 0.739336 0.526758
0.664577 0.720714 0.535013
0.686873 0.695302 0.556324
0.770657 0.745914 0.556274
0.936939 0.815943 0.518473
1.019010 0.816793 0.510174
0.010852 0.071861 0.067494
0.086275 0.073718 0.081067
0.291323 0.105767 0.055549
0.558250 0.173494 0.001790
0.814443 0.239121 0.000000
1.005412 0.293155 0.000000
0.024341 0.092049 0.083698
0.093837 0.107548 0.086867
0.297028 0.143384 0.061319
0.570015 0.204991 0.005840
0.824285 0.263592 0.000000
1.008726 0.313951 0.000000
0.044009 0.173000 0.162722
0.145939 0.192878 0.153334
0.341613 0.259124 0.107417
0.621983 0.304927 0.038272
0.848909 0.342950 0.000000
1.019025 0.379930 0.000000
0.115368 0.349943 0.253053
0.250912 0.321218 0.236593
0.352200 0.359513 0.235404
0.673325 0.464271 0.135405
0.880546 0.473361 0.070087
1.021693 0.479498 0.009822
0.311091 0.569614 0.380468
0.423078 0.538303 0.369064
0.478416 0.512734 0.398546
0.704028 0.627882 0.359653
0.907464 0.662911 0.287574
1.021583 0.643888 0.257962
0.591350 0.770071 0.545535
0.651739 0.748919 0.544672
0.699812 0.710934 0.563957
0.765888 0.746288 0.570471
0.933011 0.821826 0.536463
1.015612 0.821715 0.525025
0.000000 0.169106 0.161685
0.048538 0.187708 0.182193
0.286374 0.192611 0.226952
0.571084 0.163847 0.170006
0.813491 0.231039 0.128189
1.001397 0.307542 0.090900
0.001041 0.194205 0.179195
0.081353 0.207891 0.188274
0.287222 0.219042 0.222869
0.576038 0.203763 0.169103
0.819560 0.265544 0.132959
1.008773 0.345275 0.117982
0.037878 0.248753 0.230880
0.125464 0.270609 0.240602
0.304749 0.315715 0.249615
0.600769 0.328567 0.204765
0.840052 0.365206 0.168707
1.012162 0.406629 0.138023
0.168919 0.329934 0.345498
0.225567 0.364094 0.358510
0.382063 0.426479 0.332294
0.646103 0.504778 0.279389
0.862228 0.503842 0.229671
1.014338 0.505566 0.184261
0.246964 0.565681 0.512753
0.331780 0.625489 0.511866
0.537980 0.600699 0.442595
0.668452 0.643061 0.445289
0.886248 0.693525 0.390285
1.008734 0.670621 0.344998
0.473683 0.815146 0.659540
0.542714 0.817233 0.635743
0.703900 0.767895 0.580167
0.753551 0.754037 0.604998
0.920692 0.833664 0.584748
1.008876 0.835503 0.568448
0.000000 0.325859 0.307988
0.000000 0.338387 0.316428
0.203606 0.359808 0.353943
0.559195 0.374711 0.413360
0.784426 0.357119 0.348036
0.963278 0.423754 0.330037
0.000000 0.340377 0.315016
0.020906 0.351741 0.321219
0.229397 0.378416 0.354278
0.563418 0.399896 0.412841
0.783020 0.377733 0.347266
0.969930 0.460418 0.348001
0.000000 0.402440 0.359241
0.115281 0.414921 0.365436
0.295822 0.451292 0.380053
0.566901 0.484361 0.429297
0.792949 0.461654 0.374850
0.978079 0.502919 0.354096
0.128669 0.458153 0.416135
0.224281 0.485494 0.428291
0.382528 0.526195 0.438182
0.580237 0.578312 0.453052
0.818507 0.569283 0.403945
0.992410 0.567768 0.359866
0.299602 0.550036 0.547753
0.381787 0.578130 0.561331
0.519628 0.623773 0.576292
0.661929 0.690553 0.539429
0.851138 0.740774 0.519459
0.991522 0.716988 0.469850
0.345415 0.658152 0.729433
0.420367 0.689862 0.731341
0.583713 0.796309 0.730880
0.782084 0.817019 0.653939
0.883857 0.845042 0.666095
0.988924 0.863134 0.646587
0.000000 0.538143 0.490508
0.052670 0.543506 0.492398
0.304746 0.566885 0.502894
0.501588 0.584958 0.550720
0.770755 0.614118 0.590545
0.911081 0.617804 0.554065
0.021454 0.560616 0.504435
0.116188 0.556848 0.498150
0.325810 0.578311 0.508925
0.515806 0.598424 0.552607
0.769622 0.621401 0.589569
0.911819 0.635888 0.562782
0.137033 0.586564 0.518669
0.209431 0.589972 0.518246
0.369321 0.610825 0.524860
0.548695 0.640948 0.554930
0.774058 0.663527 0.605395
0.915819 0.653776 0.564309
0.218835 0.619667 0.545746
0.294779 0.635450 0.554181
0.417603 0.656076 0.558915
0.579089 0.684110 0.569568
0.778605 0.713398 0.619905
0.932459 0.693555 0.574415
0.359126 0.675365 0.609045
0.422742 0.693892 0.618962
0.520395 0.713830 0.623878
0.654727 0.748029 0.635289
0.793173 0.788775 0.655680
0.961003 0.783432 0.623366
0.391929 0.729575 0.741673
0.435510 0.736704 0.744672
0.551230 0.759056 0.751208
0.724604 0.806766 0.768182
0.860646 0.872403 0.746036
0.961049 0.895164 0.744715
0.485200 0.779677 0.705810
0.510699 0.779728 0.701979
0.581476 0.783699 0.701991
0.680115 0.794662 0.709335
0.776723 0.793903 0.743007
0.912901 0.814922 0.764420
0.489895 0.781165 0.705786
0.501602 0.779712 0.701911
0.575505 0.785791 0.701872
0.676516 0.795093 0.709623
0.778358 0.796152 0.740725
0.918272 0.826407 0.769623
0.494445 0.792434 0.714161
0.515337 0.794233 0.713827
0.585253 0.799608 0.713539
0.689043 0.810712 0.720817
0.791032 0.815523 0.750545
0.920588 0.838796 0.775637
0.467370 0.802603 0.728038
0.498139 0.803862 0.728760
0.576922 0.815107 0.732243
0.686140 0.826814 0.736370
0.803455 0.841627 0.755531
0.924623 0.857336 0.784072
0.500759 0.824541 0.760822
0.520780 0.825469 0.760854
0.586969 0.835095 0.762889
0.689834 0.851334 0.766622
0.822906 0.875659 0.780327
0.934579 0.894996 0.809090
0.589507 0.846208 0.805111
0.605784 0.852254 0.804787
0.666051 0.861500 0.804475
0.758926 0.879431 0.811548
0.868184 0.903846 0.819595
0.939464 0.923940 0.834781
