presets/luts/creative/film.cube
LUT_3D_SIZE 16
0.020281 0.045459 0.037430
0.023552 0.048862 0.040608
0.048248 0.044112 0.040234
0.098567 0.043298 0.037040
0.139897 0.064716 0.030736
0.194853 0.094366 0.018543
0.273572 0.128914 0.006671
0.356568 0.158851 0.000000
0.449563 0.185019 0.000000
0.549248 0.213972 0.000000
0.638844 0.237984 0.000000
0.725551 0.260242 0.000000
0.805568 0.285549 0.000000
0.874643 0.305917 0.000000
0.944614 0.318021 0.000000
1.005441 0.319204 0.000000
0.020281 0.045459 0.037430
0.022899 0.048316 0.040104
0.052523 0.042776 0.040234
0.093978 0.049160 0.036410
0.139897 0.076240 0.028745
0.195667 0.102948 0.018543
0.269291 0.132922 0.006563
0.356568 0.160816 0.000000
0.449563 0.189656 0.000000
0.548568 0.215550 0.000000
0.639718 0.241977 0.000000
0.725551 0.264397 0.000000
0.805821 0.289363 0.000000
0.875370 0.306718 0.000000
0.944614 0.317881 0.000000
1.005426 0.323142 0.000000
0.020281 0.048862 0.040661
0.022627 0.049134 0.040274
0.054750 0.058510 0.037040
0.093837 0.072972 0.033116
0.141634 0.095053 0.024931
0.207180 0.120071 0.014457
0.282104 0.144733 0.001643
0.365314 0.171120 0.000000
0.457019 0.198433 0.000000
0.555949 0.226349 0.000000
0.650345 0.254141 0.000000
0.732765 0.273895 0.000000
0.809677 0.293500 0.000000
0.883645 0.304380 0.000000
0.949110 0.313932 0.000000
1.010275 0.324353 0.000000
0.028874 0.057809 0.045918
0.030624 0.058227 0.045897
0.055286 0.069745 0.039599
0.093368 0.086457 0.030736
0.147060 0.109892 0.021776
0.211341 0.133215 0.011046
0.286908 0.157166 0.000000
0.371284 0.184340 0.000000
0.462008 0.210667 0.000000
0.560968 0.237155 0.000000
0.652085 0.262124 0.000000
0.737015 0.280330 0.000000
0.816352 0.297538 0.000000
0.888708 0.308782 0.000000
0.952882 0.317747 0.000000
1.010891 0.329080 0.000000
0.043312 0.080453 0.063277
0.049680 0.082043 0.066498
0.057565 0.086381 0.063431
0.100884 0.107488 0.051973
0.163081 0.132813 0.034504
0.231345 0.155924 0.015034
0.307844 0.178385 0.000000
0.393874 0.203230 0.000000
0.487170 0.227754 0.000000
0.584578 0.250611 0.000000
0.673324 0.269763 0.000000
0.754701 0.287694 0.000000
0.827596 0.301153 0.000000
0.898257 0.313234 0.000000
0.959059 0.327214 0.000000
1.012220 0.337602 0.000000
0.061920 0.106014 0.081133
0.069244 0.106014 0.087796
0.074421 0.108981 0.089160
0.104449 0.124686 0.079692
0.170385 0.157913 0.057941
0.244776 0.183166 0.037040
0.321685 0.204471 0.011610
0.413887 0.229810 0.000000
0.505605 0.251067 0.000000
0.599668 0.272482 0.000000
0.682872 0.286658 0.000000
0.764989 0.304584 0.000000
0.836272 0.317447 0.000000
0.902647 0.329431 0.000000
0.963499 0.343527 0.000000
1.015511 0.353875 0.000000
0.085647 0.149026 0.107491
0.103910 0.149026 0.114638
0.105161 0.145652 0.119703
0.120203 0.155184 0.118767
0.168759 0.178466 0.101368
0.256584 0.220863 0.072133
0.343420 0.247959 0.042956
0.433997 0.268924 0.006447
0.532568 0.287764 0.000000
0.623559 0.306513 0.000000
0.705677 0.320603 0.000000
0.781846 0.333476 0.000000
0.847829 0.342961 0.000000
0.914815 0.358170 0.000000
0.968965 0.366181 0.000000
1.018130 0.377144 0.000000
0.116308 0.185516 0.134077
0.134023 0.188697 0.141372
0.138458 0.183193 0.148123
0.143878 0.186482 0.151769
0.177758 0.203993 0.142498
0.251518 0.239744 0.119944
0.356894 0.287799 0.082875
0.453277 0.313910 0.044240
0.552147 0.334088 0.002422
0.642936 0.347330 0.000000
0.721984 0.358342 0.000000
0.795420 0.368744 0.000000
0.860890 0.378020 0.000000
0.922837 0.387588 0.000000
0.971885 0.395476 0.000000
1.018877 0.402319 0.000000
0.145455 0.239685 0.167704
0.164717 0.237266 0.172709
0.179289 0.229222 0.177050
0.181741 0.228293 0.185333
0.194854 0.236785 0.182030
0.251538 0.264852 0.169924
0.350873 0.314071 0.138538
0.471027 0.366613 0.095581
0.574484 0.389517 0.054486
0.663958 0.402705 0.005921
0.741831 0.409048 0.000000
0.812466 0.415433 0.000000
0.874682 0.421115 0.000000
0.932944 0.428040 0.000000
0.982015 0.435786 0.000000
1.022063 0.434125 0.000000
0.188284 0.291877 0.200616
0.202918 0.288589 0.204555
0.219678 0.279075 0.208753
0.227520 0.274963 0.217113
0.229679 0.278897 0.221802
0.266586 0.297655 0.214543
0.348934 0.338914 0.194454
0.471166 0.401066 0.157847
0.592858 0.444147 0.111618
0.678501 0.457536 0.072134
0.755496 0.464119 0.027015
0.825668 0.465437 0.000000
0.883476 0.467063 0.000000
0.939237 0.473272 0.000000
0.983042 0.475625 0.000000
1.022063 0.473331 0.000000
0.232223 0.361870 0.244709
0.246461 0.350122 0.240737
0.271853 0.345131 0.248557
0.283001 0.336734 0.257145
0.283815 0.332520 0.262696
0.304842 0.345131 0.262618
0.369721 0.380522 0.254013
0.475748 0.433803 0.228417
0.599668 0.494573 0.188729
0.701283 0.523205 0.146166
0.773525 0.525826 0.115634
0.839587 0.526464 0.085914
0.897747 0.525797 0.063308
0.949001 0.526252 0.053292
0.993301 0.528619 0.056614
1.028278 0.524649 0.033872
0.285505 0.428234 0.285054
0.305120 0.422072 0.285771
0.328724 0.414230 0.289848
0.345677 0.403067 0.298866
0.351566 0.395648 0.308375
0.355045 0.401718 0.312345
0.402375 0.429062 0.310986
0.488542 0.471318 0.294905
0.599112 0.527082 0.266844
0.703907 0.570582 0.225184
0.787043 0.587402 0.187941
0.850983 0.587009 0.163937
0.903899 0.582153 0.143680
0.950899 0.579648 0.132563
0.992512 0.576237 0.125727
1.025193 0.569921 0.114259
0.360924 0.516514 0.339287
0.375348 0.510080 0.339285
0.401374 0.498954 0.345227
0.427340 0.487592 0.353306
0.435076 0.476168 0.362624
0.437589 0.476524 0.371124
0.458539 0.492666 0.375191
0.521760 0.526873 0.368709
0.612169 0.572073 0.355024
0.710773 0.618609 0.325133
0.801353 0.651771 0.292525
0.863693 0.656805 0.261819
0.913638 0.652305 0.242187
0.958144 0.648006 0.232137
0.993847 0.642381 0.227638
1.026989 0.632196 0.216142
0.436504 0.585357 0.392217
0.450743 0.578014 0.389846
0.469436 0.568243 0.393933
0.495604 0.558854 0.402069
0.510186 0.548479 0.412302
0.512488 0.543344 0.420085
0.518680 0.551050 0.427020
0.559281 0.573579 0.426660
0.628189 0.610882 0.418568
0.712569 0.651669 0.401273
0.798820 0.687584 0.373504
0.869987 0.709086 0.346563
0.919020 0.708717 0.325997
0.959702 0.705827 0.316206
0.992316 0.700852 0.310306
1.022052 0.692632 0.305225
0.536475 0.671336 0.462290
0.555246 0.673813 0.466443
0.569842 0.662190 0.467741
0.589645 0.652112 0.471460
0.604683 0.638561 0.478947
0.608463 0.629429 0.487234
0.605625 0.626127 0.492884
0.625775 0.639537 0.496873
0.675410 0.668072 0.496873
0.742772 0.702675 0.487234
0.811356 0.736895 0.469719
0.880175 0.760441 0.447307
0.930711 0.772892 0.425922
0.968928 0.772032 0.415151
0.994513 0.765007 0.411046
1.019527 0.757140 0.402902
0.620255 0.739336 0.526758
0.634423 0.739336 0.530884
0.645940 0.731188 0.528397
0.664577 0.720714 0.535013
0.682187 0.711632 0.543144
0.691059 0.702574 0.551393
0.686873 0.695302 0.556324
0.692896 0.700196 0.559534
0.722358 0.719920 0.563588
0.770657 0.745914 0.556274
0.827914 0.775283 0.547251
0.888345 0.802130 0.534946
0.936939 0.815943 0.518473
0.976678 0.820986 0.506128
0.998123 0.819999 0.505205
1.019010 0.816793 0.510174
0.020934 0.048862 0.040650
0.020934 0.046133 0.038064
0.057271 0.042363 0.040234
0.092455 0.053501 0.035135
0.139090 0.078911 0.030114
0.199773 0.101697 0.019140
0.270827 0.126138 0.007090
0.354725 0.154259 0.000000
0.443367 0.180153 0.000000
0.544691 0.209289 0.000000
0.635296 0.233947 0.000000
0.720566 0.256995 0.000000
0.800848 0.280742 0.000000
0.875370 0.294722 0.000000
0.942148 0.301385 0.000000
0.998650 0.315680 0.000000
0.020806 0.048723 0.040641
0.022762 0.046133 0.038883
0.055688 0.048230 0.038064
0.091010 0.063447 0.034406
0.137070 0.083009 0.028148
0.198983 0.105223 0.019022
0.270409 0.129672 0.006902
0.354650 0.158048 0.000000
0.443766 0.184470 0.000000
0.540183 0.212539 0.000000
0.634440 0.237884 0.000000
0.720069 0.260808 0.000000
0.801683 0.284500 0.000000
0.875313 0.297380 0.000000
0.940938 0.304761 0.000000
0.998650 0.318979 0.000000
0.018873 0.054353 0.048579
0.028658 0.056476 0.046864
0.055591 0.065673 0.041042
0.095041 0.077066 0.036310
0.143414 0.093949 0.030864
0.207180 0.117062 0.019140
0.282248 0.142316 0.005471
0.363714 0.167602 0.000000
0.453060 0.192652 0.000000
0.549796 0.219844 0.000000
0.643327 0.246821 0.000000
0.727075 0.265181 0.000000
0.808513 0.281236 0.000000
0.882957 0.293388 0.000000
0.948954 0.305418 0.000000
1.012071 0.319935 0.000000
0.025132 0.073718 0.058205
0.038881 0.069044 0.056403
0.055430 0.075959 0.050210
0.097625 0.090345 0.041373
0.153075 0.109914 0.032988
0.218005 0.132629 0.022134
0.289006 0.155466 0.006603
0.375094 0.180026 0.000000
0.463108 0.202973 0.000000
0.558142 0.228703 0.000000
0.651245 0.251811 0.000000
0.737272 0.270089 0.000000
0.816352 0.286408 0.000000
0.887013 0.299253 0.000000
0.950726 0.312797 0.000000
1.004132 0.324791 0.000000
0.033755 0.097893 0.074855
0.054562 0.091886 0.073427
0.060894 0.093653 0.074055
0.102755 0.113590 0.062612
0.163745 0.136052 0.047917
0.229511 0.153634 0.031989
0.310591 0.176927 0.015609
0.394561 0.198528 0.000000
0.485666 0.220301 0.000000
0.580263 0.243084 0.000000
0.669719 0.262364 0.000000
0.749218 0.279520 0.000000
0.826414 0.294872 0.000000
0.895255 0.308846 0.000000
0.957812 0.323936 0.000000
1.015454 0.338104 0.000000
0.057563 0.121688 0.089379
0.076063 0.117776 0.092107
0.079797 0.117482 0.096633
0.106554 0.131190 0.089414
0.171196 0.161515 0.068717
0.241406 0.183400 0.048025
0.325128 0.207362 0.026520
0.412976 0.227215 0.004073
0.501588 0.246940 0.000000
0.597913 0.266891 0.000000
0.682872 0.285885 0.000000
0.759994 0.299715 0.000000
0.837024 0.315372 0.000000
0.900612 0.327228 0.000000
0.960287 0.340465 0.000000
1.012235 0.350238 0.000000
0.074284 0.161224 0.115279
0.101756 0.158713 0.118978
0.112887 0.154269 0.125001
0.121761 0.159659 0.126388
0.170678 0.184250 0.111445
0.256584 0.224437 0.085362
0.343420 0.248102 0.056635
0.436105 0.268832 0.023344
0.531178 0.288368 0.000000
0.622295 0.305298 0.000000
0.704894 0.319923 0.000000
0.777698 0.329944 0.000000
0.850826 0.342635 0.000000
0.913900 0.354860 0.000000
0.968439 0.366267 0.000000
1.018276 0.375478 0.000000
0.110562 0.199381 0.141698
0.130883 0.195451 0.144954
0.144703 0.190768 0.151096
0.148169 0.192504 0.155767
0.178095 0.207016 0.148752
0.251700 0.243724 0.127910
0.356338 0.290884 0.091554
0.451621 0.315711 0.058022
0.550811 0.333759 0.014128
0.640170 0.345581 0.000000
0.720816 0.359156 0.000000
0.791617 0.365544 0.000000
0.859191 0.376204 0.000000
0.921004 0.386739 0.000000
0.971451 0.395480 0.000000
1.016550 0.399889 0.000000
0.136711 0.251503 0.173645
0.161889 0.249008 0.176358
0.185009 0.240639 0.182183
0.188283 0.235546 0.188989
0.200282 0.242274 0.190562
0.252671 0.268093 0.177693
0.352881 0.319586 0.149214
0.473160 0.369023 0.107590
0.573628 0.390919 0.067362
0.663134 0.403777 0.022738
0.737929 0.406861 0.000000
0.810533 0.414315 0.000000
0.874422 0.421446 0.000000
0.931941 0.428283 0.000000
0.982056 0.437493 0.000000
1.022063 0.436449 0.000000
0.179955 0.301625 0.205068
0.201541 0.297490 0.208121
0.225574 0.289351 0.213622
0.233951 0.281439 0.221571
0.235217 0.283958 0.226365
0.270584 0.302640 0.222258
0.352401 0.345423 0.203561
0.471639 0.403100 0.165959
0.589495 0.444369 0.120231
0.677659 0.457920 0.083693
0.751555 0.460781 0.043732
0.822229 0.466004 0.008603
0.883749 0.468982 0.000000
0.937162 0.473255 0.000000
0.983042 0.475962 0.000000
1.022110 0.470943 0.000000
0.218005 0.366103 0.241467
0.242252 0.362942 0.245854
0.273573 0.358191 0.253050
0.292562 0.346227 0.261353
0.293036 0.342428 0.270513
0.309784 0.353516 0.274387
0.372003 0.386269 0.262618
0.479272 0.440369 0.240019
0.601465 0.496038 0.198265
0.700248 0.523522 0.157245
0.773525 0.529614 0.123550
0.839315 0.527553 0.097845
0.895254 0.526839 0.077762
0.947022 0.528113 0.069128
0.991870 0.531003 0.070762
1.028279 0.524403 0.051339
0.280545 0.441266 0.289677
0.300947 0.434220 0.289603
0.332627 0.425725 0.294982
0.355244 0.414479 0.306680
0.361701 0.404848 0.313585
0.365371 0.411040 0.321021
0.407944 0.432561 0.317528
0.492567 0.477423 0.302923
0.599224 0.530790 0.272546
0.703287 0.571267 0.231915
0.786223 0.587165 0.196278
0.847891 0.587717 0.172753
0.903498 0.584044 0.153677
0.948639 0.580111 0.141613
0.989622 0.576981 0.135713
1.025179 0.569712 0.122059
0.358225 0.528316 0.347844
0.373856 0.521456 0.346003
0.404871 0.513435 0.351012
0.434514 0.500830 0.359234
0.447200 0.489418 0.370899
0.446325 0.485263 0.377252
0.466924 0.499183 0.383029
0.525740 0.531899 0.377439
0.613735 0.575424 0.360314
0.710927 0.620875 0.333040
0.798820 0.650070 0.298408
0.861245 0.658240 0.267911
0.912952 0.653946 0.250130
0.957793 0.649539 0.241103
0.993352 0.643088 0.237493
1.025553 0.636289 0.225100
0.437755 0.595600 0.397979
0.452470 0.589938 0.397979
0.476526 0.582687 0.402195
0.504638 0.571887 0.410266
0.521777 0.559888 0.418905
0.524175 0.553148 0.427020
0.527848 0.559027 0.434571
0.562097 0.577835 0.431966
0.631112 0.613755 0.423708
0.715572 0.653777 0.406052
0.799316 0.690494 0.380531
0.870333 0.711354 0.352771
0.920104 0.713462 0.332981
0.958798 0.709224 0.322233
0.991951 0.701142 0.314201
1.020517 0.693605 0.309225
0.539365 0.683104 0.469976
0.550184 0.678373 0.470003
0.570960 0.671483 0.472155
0.593737 0.660613 0.478674
0.612807 0.649697 0.487061
0.614524 0.637036 0.491396
0.614376 0.634184 0.499536
0.628806 0.644079 0.503146
0.675425 0.670138 0.499939
0.740062 0.703513 0.492100
0.814020 0.736859 0.477241
0.878775 0.763172 0.452283
0.931825 0.772607 0.432002
0.966459 0.771861 0.419475
0.994611 0.767906 0.415416
1.019878 0.757949 0.411061
0.623885 0.747658 0.534108
0.633557 0.744073 0.534966
0.649646 0.739843 0.536762
0.671512 0.729695 0.539611
0.689434 0.719878 0.547291
0.692020 0.707614 0.552257
0.691829 0.702668 0.560163
0.695950 0.704284 0.563914
0.720963 0.721538 0.563965
0.770591 0.745887 0.559751
0.831993 0.778289 0.555432
0.887451 0.802221 0.539014
0.935564 0.818439 0.521816
0.974505 0.822834 0.506376
1.000172 0.822533 0.508886
1.018939 0.817831 0.514265
0.018995 0.052286 0.049996
0.018995 0.053405 0.051309
0.052105 0.054534 0.056209
0.098567 0.058020 0.052631
0.144181 0.071556 0.043465
0.208910 0.093829 0.034504
0.279871 0.116990 0.019740
0.359876 0.141570 0.004073
0.450768 0.169109 0.000000
0.548695 0.195155 0.000000
0.640646 0.218993 0.000000
0.725821 0.237437 0.000000
0.807641 0.257396 0.000000
0.881284 0.273272 0.000000
0.949508 0.290851 0.000000
1.001969 0.303618 0.000000
0.018355 0.057116 0.050001
0.023103 0.057452 0.051577
0.052105 0.058311 0.053690
0.094472 0.065549 0.049338
0.141864 0.077953 0.042091
0.204754 0.097783 0.034253
0.276522 0.121257 0.018837
0.359876 0.145803 0.003193
0.450685 0.173073 0.000000
0.545751 0.199289 0.000000
0.640646 0.222945 0.000000
0.726269 0.242106 0.000000
0.809689 0.261681 0.000000
0.881716 0.277846 0.000000
0.947627 0.294647 0.000000
1.000207 0.307366 0.000000
0.016442 0.066908 0.059322
0.026836 0.068750 0.059485
0.051812 0.074947 0.060947
0.093837 0.079927 0.056343
0.148170 0.093453 0.050913
0.212377 0.111696 0.042301
0.287800 0.131811 0.028246
0.371529 0.156128 0.012193
0.463108 0.179441 0.000000
0.561377 0.204386 0.000000
0.650538 0.226348 0.000000
0.735749 0.246475 0.000000
0.815088 0.262745 0.000000
0.887470 0.280460 0.000000
0.951373 0.297136 0.000000
1.013857 0.313655 0.000000
0.028334 0.071022 0.067909
0.034822 0.077605 0.068747
0.055056 0.085501 0.068478
0.098299 0.096286 0.059116
0.154544 0.110649 0.052362
0.218005 0.128135 0.043977
0.292010 0.146696 0.028896
0.378600 0.170902 0.013420
0.470346 0.192626 0.000000
0.566986 0.215918 0.000000
0.656520 0.235241 0.000000
0.742966 0.256207 0.000000
0.819120 0.271353 0.000000
0.891063 0.288883 0.000000
0.953194 0.305804 0.000000
1.005523 0.317968 0.000000
0.030896 0.098209 0.093002
0.037736 0.108146 0.090562
0.070628 0.107757 0.088464
0.101830 0.122710 0.080900
0.164120 0.140662 0.066463
0.235541 0.156794 0.054610
0.312194 0.173933 0.039599
0.395799 0.193711 0.021144
0.487848 0.216334 0.002328
0.584173 0.237368 0.000000
0.671182 0.255712 0.000000
0.752964 0.271447 0.000000
0.828630 0.288714 0.000000
0.898439 0.304558 0.000000
0.959858 0.318883 0.000000
1.015503 0.337306 0.000000
0.035674 0.139840 0.113153
0.057563 0.135284 0.102002
0.090332 0.130883 0.106868
0.107157 0.139234 0.105292
0.170621 0.166772 0.087306
0.244776 0.189699 0.069411
0.323045 0.203530 0.048290
0.410459 0.224773 0.026520
0.503881 0.245519 0.003965
0.598763 0.263455 0.000000
0.682872 0.281091 0.000000
0.764075 0.296234 0.000000
0.837176 0.310400 0.000000
0.902647 0.324499 0.000000
0.962208 0.339164 0.000000
1.012235 0.348661 0.000000
0.044439 0.179267 0.137353
0.075863 0.181021 0.131982
0.120646 0.172179 0.133194
0.127850 0.170648 0.138277
0.170145 0.189798 0.127033
0.255241 0.228266 0.102084
0.343049 0.251728 0.076459
0.434503 0.269284 0.049545
0.529984 0.288835 0.019140
0.622167 0.303313 0.000000
0.701284 0.315242 0.000000
0.777232 0.327558 0.000000
0.849095 0.341423 0.000000
0.914316 0.354510 0.000000
0.969499 0.366965 0.000000
1.018877 0.376624 0.000000
0.081888 0.218958 0.156143
0.112482 0.214835 0.151388
0.150104 0.207418 0.157140
0.157238 0.202889 0.164420
0.179754 0.215440 0.160975
0.249547 0.249387 0.142361
0.356047 0.293998 0.109878
0.450765 0.316103 0.078355
0.548829 0.335258 0.042352
0.638479 0.346380 0.006475
0.717763 0.355915 0.000000
0.791172 0.366207 0.000000
0.858946 0.377028 0.000000
0.919831 0.387635 0.000000
0.971253 0.396118 0.000000
1.017281 0.400528 0.000000
0.111654 0.273966 0.190567
0.139896 0.267343 0.183658
0.182754 0.258761 0.188372
0.200855 0.248010 0.197041
0.205249 0.252136 0.200069
0.255038 0.277099 0.190196
0.351209 0.322683 0.163337
0.472790 0.372751 0.125031
0.571297 0.392968 0.089427
0.661092 0.404519 0.054195
0.738639 0.409860 0.016313
0.808832 0.415415 0.000446
0.873431 0.423763 0.000000
0.930550 0.430623 0.000000
0.980839 0.438194 0.000000
1.022063 0.437381 0.000000
0.160346 0.320539 0.215772
0.184198 0.314132 0.214501
0.222978 0.306413 0.218992
0.243398 0.296813 0.228451
0.244444 0.294376 0.234709
0.274919 0.310899 0.230751
0.352308 0.349700 0.214068
0.471166 0.406911 0.178709
0.588596 0.447151 0.137991
0.674041 0.460201 0.103216
0.751800 0.463654 0.070087
0.821464 0.468296 0.042481
0.883177 0.470463 0.020219
0.936130 0.474102 0.005696
0.982443 0.477117 0.000806
1.022085 0.474667 0.000000
0.191601 0.382121 0.252631
0.226343 0.384264 0.257332
0.266610 0.375255 0.259404
0.300671 0.362023 0.267459
0.306215 0.352688 0.275955
0.313115 0.361870 0.282223
0.374083 0.390606 0.274672
0.476786 0.442878 0.250280
0.599668 0.500782 0.213055
0.696917 0.528101 0.174849
0.769302 0.530716 0.143948
0.836765 0.530865 0.118933
0.893892 0.528862 0.102782
0.946845 0.530968 0.093605
0.989615 0.532772 0.093605
1.025193 0.528276 0.076272
0.259970 0.456652 0.297376
0.285008 0.452577 0.298092
0.323299 0.442505 0.301036
0.361150 0.429041 0.309592
0.372103 0.418165 0.321087
0.373479 0.416202 0.328328
0.410264 0.439549 0.325134
0.489953 0.480416 0.312104
0.596975 0.532595 0.284788
0.701787 0.573171 0.245312
0.782770 0.588973 0.210432
0.847829 0.591980 0.188580
0.901786 0.587598 0.169289
0.949375 0.583226 0.157244
0.988314 0.578273 0.151519
1.025180 0.573185 0.139928
0.341476 0.540726 0.356146
0.359126 0.534435 0.352370
0.395008 0.526942 0.354956
0.436568 0.515483 0.364442
0.457008 0.502144 0.374507
0.456917 0.494051 0.384310
0.471040 0.503704 0.388211
0.525509 0.534432 0.383945
0.612169 0.578436 0.370299
0.708470 0.623896 0.343290
0.795619 0.653370 0.311567
0.861066 0.660702 0.282266
0.911423 0.658298 0.265390
0.953650 0.651718 0.254952
0.990259 0.646433 0.248558
1.024589 0.640120 0.239279
0.422826 0.607481 0.403330
0.440336 0.601874 0.402472
0.469000 0.594357 0.405592
0.504334 0.583394 0.413527
0.527866 0.571060 0.424687
0.529450 0.561056 0.431525
0.531324 0.561424 0.437923
0.563359 0.579761 0.437600
0.629269 0.615089 0.430245
0.713237 0.654790 0.412814
0.797202 0.694195 0.389235
0.867512 0.712106 0.360570
0.919254 0.715972 0.343795
0.956607 0.708729 0.330798
0.990106 0.702939 0.324640
1.020209 0.696932 0.320364
0.524123 0.689616 0.472761
0.538261 0.687407 0.474728
0.560080 0.679034 0.475269
0.589186 0.669617 0.480242
0.612521 0.655279 0.487234
0.621826 0.642976 0.495524
0.618312 0.637449 0.502361
0.631548 0.647679 0.506573
0.675088 0.672250 0.506491
0.739794 0.705123 0.497341
0.810532 0.740185 0.483079
0.876620 0.762413 0.459198
0.928978 0.774846 0.439536
0.965094 0.774404 0.427555
0.992959 0.768971 0.421729
1.018947 0.760921 0.417506
0.609798 0.753144 0.535045
0.623461 0.753490 0.537465
0.639728 0.747593 0.536618
0.665255 0.738722 0.541687
0.686140 0.725995 0.547271
0.695431 0.715001 0.555513
0.695481 0.706446 0.562339
0.695492 0.705187 0.566264
0.720694 0.721600 0.567686
0.768300 0.746398 0.565412
0.830384 0.779257 0.559523
0.885246 0.803527 0.543645
0.935954 0.820121 0.526723
0.972144 0.824584 0.511885
0.997687 0.820722 0.514320
1.017034 0.819009 0.518386
0.010852 0.071861 0.067494
0.014551 0.072292 0.066052
0.033478 0.072228 0.075559
0.086275 0.073718 0.081067
0.155052 0.075147 0.080839
0.219679 0.086206 0.067362
0.291323 0.105767 0.055549
0.371284 0.126484 0.042048
0.461378 0.151583 0.024437
0.558250 0.173494 0.001790
0.652085 0.196210 0.000000
0.734980 0.218002 0.000000
0.814443 0.239121 0.000000
0.886729 0.256410 0.000000
0.948830 0.276875 0.000000
1.005412 0.293155 0.000000
0.014310 0.075850 0.067840
0.021590 0.075351 0.066817
0.040738 0.073798 0.074727
0.087822 0.077363 0.078232
0.151528 0.079267 0.073114
0.215487 0.090997 0.063577
0.288820 0.111028 0.052182
0.368158 0.132020 0.038543
0.460480 0.156057 0.019140
0.554653 0.178093 0.000686
0.651737 0.204117 0.000000
0.736586 0.222503 0.000000
0.816484 0.242348 0.000000
0.885934 0.260095 0.000000
0.948488 0.279335 0.000000
1.003641 0.293766 0.000000
0.017205 0.086085 0.078685
0.028203 0.088715 0.078075
0.047341 0.093154 0.082005
0.089785 0.094468 0.086636
0.151451 0.096689 0.079432
0.219679 0.109339 0.071579
0.295657 0.127557 0.061238
0.378235 0.146298 0.047031
0.469871 0.168271 0.029365
0.566934 0.190168 0.005820
0.659176 0.213162 0.000000
0.741837 0.229940 0.000000
0.820139 0.249725 0.000000
0.890805 0.269220 0.000000
0.953914 0.288079 0.000000
1.014634 0.311191 0.000000
0.024341 0.092049 0.083698
0.034848 0.093381 0.083476
0.055893 0.100267 0.086212
0.093837 0.107548 0.086867
0.155321 0.115803 0.080879
0.222839 0.129261 0.072807
0.297028 0.143384 0.061319
0.382890 0.163291 0.048026
0.473683 0.184215 0.029437
0.570015 0.204991 0.005840
0.662538 0.226559 0.000000
0.746436 0.243998 0.000000
0.824285 0.263592 0.000000
0.892380 0.280393 0.000000
0.953468 0.296898 0.000000
1.008726 0.313951 0.000000
0.035257 0.106392 0.105628
0.046668 0.107195 0.104980
0.065421 0.120052 0.110451
0.099198 0.136867 0.110106
0.161080 0.150194 0.094366
0.232223 0.159703 0.081750
0.311865 0.174271 0.072480
0.398734 0.191777 0.060085
0.490198 0.211550 0.040914
0.586994 0.232584 0.015894
0.674040 0.249869 0.000000
0.754165 0.265842 0.000000
0.829889 0.281474 0.000000
0.901135 0.300750 0.000000
0.960173 0.316296 0.000000
1.017017 0.335646 0.000000
0.048248 0.125442 0.128632
0.052239 0.134558 0.129061
0.071166 0.157015 0.129223
0.114124 0.155937 0.126795
0.165020 0.177370 0.113908
0.242252 0.194869 0.095008
0.323045 0.207774 0.078997
0.413887 0.223794 0.064659
0.503881 0.241868 0.045421
0.598763 0.261749 0.019617
0.687230 0.278804 0.001219
0.764075 0.292565 0.000000
0.838637 0.306387 0.000000
0.905551 0.324448 0.000000
0.962208 0.336465 0.000000
1.012235 0.346358 0.000000
0.044009 0.173000 0.162722
0.052753 0.191187 0.166300
0.086246 0.203186 0.158576
0.145939 0.192878 0.153334
0.167126 0.200592 0.151213
0.248994 0.237777 0.129061
0.341613 0.259124 0.107417
0.432974 0.271580 0.083151
0.530748 0.289601 0.061695
0.621983 0.304927 0.038272
0.702681 0.316932 0.013082
0.777698 0.329567 0.000000
0.848909 0.342950 0.000000
0.913823 0.354880 0.000000
0.970748 0.369011 0.000000
1.019025 0.379930 0.000000
0.050383 0.238887 0.194875
0.071521 0.242945 0.189608
0.120138 0.238026 0.173294
0.174421 0.224891 0.176566
0.183591 0.227646 0.179692
0.247302 0.259306 0.164674
0.352506 0.303389 0.137054
0.447725 0.321452 0.107555
